!!!!SEGMENT: pl-wtm--r-1758_stefani-jozef--orchestral-piece-no-12.krn
!!!cenid: 18xx:1909
!!!COM: Stefani, Józef
!!!COM-rismid: pe30024097
!!!CDT: 1800/04/16-1876/03/19
!!!CNT: Polish
!!!OTL: Orchestral piece No 12
!!!PDT:
!!!AGN: Secular
!!!SMS-siglum: PL-Wtm
!!!SMS-shelfmark: R 1758
!!!SMS-shelfwork: W
!!!SMS-variant:
!!!SMS-altvar:
!!!NIFC-rismid: 1001131277
!!!URL-scan: http://repozytorium.nifc.pl/skany/pl-wtm-nut--r1758
!!!ONB-nifc:
**kern	**dynam	**kern	**dynam	**kern	**dynam	**kern	**dynam	**kern	**dynam	**kern	**dynam	**kern	**dynam	**kern	**dynam	**kern	**dynam	**kern	**dynam	**kern	**dynam	**kern	**dynam
*part12	*part12	*part11	*part11	*part10	*part10	*part9	*part9	*part8	*part8	*part7	*part7	*part6	*part6	*part5	*part5	*part4	*part4	*part3	*part3	*part2	*part2	*part1	*part1
*staff12	*	*staff11	*	*staff10	*	*staff9	*	*staff8	*	*staff7	*	*staff6	*	*staff5	*	*staff4	*	*staff3	*	*staff2	*	*staff1	*
*I"Werbel To tombaſso	*	*I"Serpent Trombone	*	*I"Trombe in C	*	*I"Trombe in F.	*	*I"Fagotti	*	*I"Corni in C.	*	*I"Corni in F.	*	*I"Oboe	*	*I"2 / 3.	*	*I"1. Clarinetti in C	*	*I"Picolo in F.	*	*I"Petit in F.	*
*I'[tamburino]	*	*I'[serpentone / trb]	*	*I'[tr in C]	*	*I'[tr in F]	*	*I'[fg]	*	*I'[cor in C]	*	*I'[cor in F]	*	*I'[ob]	*	*I'[cl 2, 3]	*	*I'[cl 1]	*	*I'[fl.picc]	*	*I'[fl]	*
*>[A,A,B,C,D,D,E,D]	*>[A,A,B,C,D,D,E,D]	*>[A,A,B,C,D,D,E,D]	*>[A,A,B,C,D,D,E,D]	*>[A,A,B,C,D,D,E,D]	*>[A,A,B,C,D,D,E,D]	*>[A,A,B,C,D,D,E,D]	*>[A,A,B,C,D,D,E,D]	*>[A,A,B,C,D,D,E,D]	*>[A,A,B,C,D,D,E,D]	*>[A,A,B,C,D,D,E,D]	*>[A,A,B,C,D,D,E,D]	*>[A,A,B,C,D,D,E,D]	*>[A,A,B,C,D,D,E,D]	*>[A,A,B,C,D,D,E,D]	*>[A,A,B,C,D,D,E,D]	*>[A,A,B,C,D,D,E,D]	*>[A,A,B,C,D,D,E,D]	*>[A,A,B,C,D,D,E,D]	*>[A,A,B,C,D,D,E,D]	*>[A,A,B,C,D,D,E,D]	*>[A,A,B,C,D,D,E,D]	*>[A,A,B,C,D,D,E,D]	*>[A,A,B,C,D,D,E,D]
*>A	*>A	*>A	*>A	*>A	*>A	*>A	*>A	*>A	*>A	*>A	*>A	*>A	*>A	*>A	*>A	*>A	*>A	*>A	*>A	*>A	*>A	*>A	*>A
*clefF4	*	*clefF4	*	*clefG2	*	*clefG2	*	*clefF4	*	*clefG2	*	*clefG2	*	*clefG2	*	*clefG2	*	*clefG2	*	*clefG2	*	*clefG2	*
*	*	*	*	*	*	*ITrd-3c-5	*	*	*	*ITrd0c0	*	*ITrd4c7	*	*	*	*	*	*	*	*ITrd-2c-3	*	*ITrd-3c-5	*
*k[]	*	*k[]	*	*k[]	*	*k[]	*	*k[]	*	*k[]	*	*k[]	*	*k[]	*	*k[]	*	*k[]	*	*k[]	*	*k[]	*
*C:	*	*C:	*	*C:	*	*C:	*	*C:	*	*C:	*	*C:	*	*C:	*	*C:	*	*C:	*	*C:	*	*C:	*
*M6/8	*	*M6/8	*	*M6/8	*	*M6/8	*	*M6/8	*	*M6/8	*	*M6/8	*	*M6/8	*	*M6/8	*	*M6/8	*	*M6/8	*	*M6/8	*
*all\right	*	*all\right	*	*all\right	*	*all\right	*	*all\right	*	*all\right	*	*all\right	*	*all\right	*	*all\right	*	*all\right	*	*all\right	*	*all\right	*
*^	*	*	*	*	*	*	*	*	*	*	*	*^	*	*	*	*	*	*	*	*	*	*	*
!	!	!	!	!	!	!	!	!	!	!	!	!	!	!	!	!	!	!	!	!	!	!	!	!LO:TX:a:t=Nr. 12.	!
32Ra/LLL	8rEE	.	8G 8GG\	.	8g/	.	8gg\	.	8G 8GG/	.	8g 8G/	.	8g/	8g\	.	8gg 8g\	.	8g/	.	8gg\|	.	8gg\	.	8gg\	.
32Ra/	.	.	.	.	.	.	.	.	.	.	.	.	.	.	.	.	.	.	.	.	.	.	.	.	.
32Ra/	.	.	.	.	.	.	.	.	.	.	.	.	.	.	.	.	.	.	.	.	.	.	.	.	.
32Ra/JJJ	.	.	.	.	.	.	.	.	.	.	.	.	.	.	.	.	.	.	.	.	.	.	.	.	.
=1	=1	=1	=1	=1	=1	=1	=1	=1	=1	=1	=1	=1	=1	=1	=1	=1	=1	=1	=1	=1	=1	=1	=1	=1	=1
*	*	*	*^	*	*	*	*	*	*	*	*	*	*	*	*	*	*	*	*	*	*	*	*	*	*
8Ra/	4Ra\	.	8c 8C\	8ryy	.	8cc\	.	8cc/	.	8c 8C\	.	8cc 8c/	.	8c/	8c\	.	8ccc 8cc\	.	8cc\	.	8ccc\|	.	8ccc\	.	8ccc\	.
8rF	.	.	8rc	8rAA	.	8r	.	8r	.	8r	.	8r	.	8r	8ryy	.	8r	.	8r	.	8r	.	8r	.	8r	.
8rF	8rGG	.	8rc	16GG\LL	.	16g/LL	.	16gg\LL	.	8r	.	16gLL 16G/	.	16g/LL	16g\LL	.	8r	.	8r	.	8r	.	8r	.	8r	.
.	.	.	.	16GG\JJ	.	16g/JJ	.	16gg\JJ	.	.	.	16gJJ 16G/	.	16g/JJ	16g\JJ	.	.	.	.	.	.	.	.	.	.	.
4rA	4rGG	.	4rc	4C\	.	4cc\	.	4cc/	.	4r	.	4cc 4c/	.	4c/	4c\	.	4r	.	4r	.	4r	.	4r	.	4r	.
32Ra/LLL	8rEE	.	8G 8GG\	8ryy	.	8g/	.	8gg\	.	8G 8GG\	.	8g 8G/	.	8g/	8g\	.	8gg 8g\	.	8g/	.	8gg\|	.	8gg\	.	8gg\	.
32Ra/	.	.	.	.	.	.	.	.	.	.	.	.	.	.	.	.	.	.	.	.	.	.	.	.	.	.
32Ra/	.	.	.	.	.	.	.	.	.	.	.	.	.	.	.	.	.	.	.	.	.	.	.	.	.	.
32Ra/JJJ	.	.	.	.	.	.	.	.	.	.	.	.	.	.	.	.	.	.	.	.	.	.	.	.	.	.
=2	=2	=2	=2	=2	=2	=2	=2	=2	=2	=2	=2	=2	=2	=2	=2	=2	=2	=2	=2	=2	=2	=2	=2	=2	=2	=2
8Ra/	4Ra\	.	8c 8C\	8ryy	.	8cc\	.	8cc/	.	8c 8C\	.	8cc 8c/	.	8c/	8c\	.	8ccc 8cc\	.	8cc\	.	8ccc\|	.	8ccc\	.	8ccc\	.
8rF	.	.	8rc	8rAA	.	8r	.	8r	.	8r	.	8r	.	8r	8ryy	.	8r	.	8r	.	8r	.	8r	.	8r	.
8rF	8rGG	.	8rc	16GG\LL	.	16g/LL	.	16gg\LL	.	8r	.	16gLL 16G/	.	16g/LL	16g\LL	.	8r	.	8r	.	8r	.	8r	.	8r	.
.	.	.	.	16GG\JJ	.	16g/JJ	.	16gg\JJ	.	.	.	16gJJ 16G/	.	16g/JJ	16g\JJ	.	.	.	.	.	.	.	.	.	.	.
4rA	4rGG	.	4rc	4C\	.	4cc\	.	4cc/	.	4r	.	4cc 4c/	.	4c/	4c\	.	4r	.	4r	.	4r	.	4r	.	4r	.
32Ra/LLL	8rEE	.	8G 8GG\	8ryy	.	8g/	.	8gg\	.	8G 8GG\	.	8g 8G/	.	8g/	8g\	.	8gg 8g\	.	8g/	.	8g/|	.	8gg\	.	8gg\	.
32Ra/	.	.	.	.	.	.	.	.	.	.	.	.	.	.	.	.	.	.	.	.	.	.	.	.	.	.
32Ra/	.	.	.	.	.	.	.	.	.	.	.	.	.	.	.	.	.	.	.	.	.	.	.	.	.	.
32Ra/JJJ	.	.	.	.	.	.	.	.	.	.	.	.	.	.	.	.	.	.	.	.	.	.	.	.	.	.
*	*	*	*v	*v	*	*	*	*	*	*	*	*	*	*	*	*	*	*	*	*	*	*	*	*	*	*
=3	=3	=3	=3	=3	=3	=3	=3	=3	=3	=3	=3	=3	=3	=3	=3	=3	=3	=3	=3	=3	=3	=3	=3	=3	=3
4Ra/	4Ra\	.	8c 8C\	.	8c/	.	8cc/	.	8c 8C\	.	8cc 8c/	.	8c/	8c\	.	8cc\L	.	8c/L	.	8cc\|	.	8ccc\	.	8ccc\	.
.	.	.	8r	.	8r	.	8r	.	8r	.	8r	.	8r	8ryy	.	8r	.	8r	.	8r	.	8r	.	8r	.
8r	8ryy	.	16GG/LL	.	16G/LL	.	16gg\LL	.	16GLL 16GG\	.	16gLL 16G/	.	16g/LL	16g\LL	.	16g\L	.	16G/L	.	16g/LL	.	16gg\LL	.	16gg\LL	.
.	.	.	16GG/JJ	.	16G/JJ	.	16gg\JJ	.	16GJJ 16GG\	.	16gJJ 16G/	.	16g/JJ	16g\JJ	.	16g\JJ	.	16G/JJ	.	16g/JJ|	.	16gg\JJ	.	16gg\JJ	.
4Ra/	4Ra\	.	8C/L	.	8c/L	.	8cc/	.	8cL 8C\	.	8ccL 8c/	.	8c/L	8c\L	.	8cc\L	.	8c/L	.	8cc\L|	.	8ccc\L	.	8ccc\L	.
.	.	.	8r	.	8r	.	8r	.	8r	.	8r	.	8r	8ryy	.	8r	.	8r	.	8r	.	8r	.	8r	.
8r	8ryy	.	8E/J	.	8e/J	.	8r	.	8eJ 8E\	.	8eeJ 8e/	.	8e/J	8e\J	.	8ee\J	.	8e/J	.	8ee\J|	.	8eee\J	.	8eee\J	.
=4	=4	=4	=4	=4	=4	=4	=4	=4	=4	=4	=4	=4	=4	=4	=4	=4	=4	=4	=4	=4	=4	=4	=4	=4	=4
*	*	*	*	*	*	*	*	*	*	*	*	*	*	*	*	*^	*	*	*	*	*	*	*	*	*
8Ra/	8Ra\	.	8G\	.	8g/	.	8gg\	.	8g 8G\	.	8gg 8g\	.	8g/	8g\	.	8gg\	4ryy	.	8g/	.	8gg\|	.	8ggg\	.	8ggg\	.
8r	8ryy	.	8r	.	8r	.	8r	.	8r	.	8r	.	8r	8ryy	.	8r	.	.	8r	.	8r	.	8r	.	8r	.
8r	8ryy	.	8r	.	8r	.	8r	.	8r	.	8r	.	8r	8ryy	.	8r	8ryy	.	8r	.	8r	.	8r	.	8r	.
!	!	!	!	!	!	!	!	!	!	!	!	!	!	!	!	!	!	!	!	!LO:DY:rj:t=ffo	!	!LO:DY:rj:t=ffo	!	!	!LO:TX:t=P:problem:skreślona kreska taktowa początek repetycji	!
4Ra/	4Ra\	.	4G 4GG/	.	4g/	.	4gg\	.	4G 4GG/	.	4dd 4g/	.	4g/	4g\	.	4gg 4b\	4ryy	ff	4dd 4b\	ff	4gg\|	ff	4ggg^\	.	4ggg^\	.
8r	8ryy	.	8r	.	8r	.	8r	.	8r	.	8r	.	8r	8ryy	.	8g/	8r	.	8r	.	8g/	.	8ryy	.	8gg\	.
*v	*v	*	*	*	*	*	*	*	*	*	*	*	*v	*v	*	*	*	*	*	*	*	*	*	*	*	*
=5	=5	=5	=5	=5	=5	=5	=5	=5	=5	=5	=5	=5	=5	=5	=5	=5	=5	=5	=5	=5	=5	=5	=5	=5
*	*	*	*	*	*	*	*	*^	*	*	*	*	*	*	*	*	*	*	*	*	*	*	*	*
!	!	!	!	!	!	!	!	!LO:TX:a:t=3	!	!	!	!	!	!	!	!	!	!	!	!	!	!	!	!	!
!	!	!	!	!	!	!	!	!LO:TX:a:t=1\n2	!	!	!	!	!	!	!	!	!	!	!	!	!	!	!	!	!
2.r	.	4C/	.	2.r	.	2.r	.	4G 4E/	4C\	.	4ee 4cc\	.	4g 4c/	.	8g/L	4g\	.	4e 4c/	.	8g'/L	.	2.ryy	.	8gg\L	.
.	.	.	.	.	.	.	.	.	.	.	.	.	.	.	8a/	.	.	.	.	8a'/	.	.	.	8aa\	.
.	.	8r	.	.	.	.	.	8r	8ryy	.	8r	.	8r	.	8b/J	8r	.	8r	.	8b'/J	.	.	.	8bb\J	.
.	.	.	.	.	.	.	.	.	.	.	.	.	.	.	8qdd/	.	.	.	.	(8qdd/	.	.	.	(8qddd/	.
.	.	4C/	.	.	.	.	.	4G 4E/	4C\	.	4ee 4cc\	.	4g 4c/	.	8cc/L	4g\	.	4e 4c/	.	8cc\L)	.	.	.	8ccc\L)	.
.	.	.	.	.	.	.	.	.	.	.	.	.	.	.	8b/	.	.	.	.	8b'\	.	.	.	8bb'\	.
.	.	8r	.	.	.	.	.	8r	8ryy	.	8r	.	8r	.	8cc/J	8r	.	8r	.	8cc'\J	.	.	.	8ccc'\J	.
=6	=6	=6	=6	=6	=6	=6	=6	=6	=6	=6	=6	=6	=6	=6	=6	=6	=6	=6	=6	=6	=6	=6	=6	=6	=6
2.r	.	4C/	.	2.r	.	2.r	.	4G 4E/	4C\	.	4ee 4cc\	.	4g 4c/	.	4ee/	4g\	.	4e 4c/	.	4ee\	.	2.ryy	.	4eee\	.
.	.	8r	.	.	.	.	.	8r	8ryy	.	8r	.	8r	.	8dd/	8r	.	8r	.	8dd\	.	.	.	8ddd\	.
.	.	4C/	.	.	.	.	.	4G 4E/	4C\	.	4ee 4cc\	.	4g 4c/	.	4b/	4g\	.	4e 4c/	.	4b\	.	.	.	4bb\	.
.	.	8r	.	.	.	.	.	8r	8ryy	.	8r	.	8r	.	8cc/	8r	.	8r	.	8cc\	.	.	.	8ccc\	.
=7	=7	=7	=7	=7	=7	=7	=7	=7	=7	=7	=7	=7	=7	=7	=7	=7	=7	=7	=7	=7	=7	=7	=7	=7	=7
*	*	*	*	*	*	*	*	*	*	*	*^	*	*^	*	*	*	*	*	*	*	*	*	*	*	*
2.r	.	4C/	.	4r	.	2.r	.	4A 4F 4C\	4.ryy	.	4cc/	4cc\	.	4a 4f\	4.ryy	.	4ee/	4a\	.	4f 4c/	.	4ee\	.	2.ryy	.	4eee\	.
.	.	8r	.	8r	.	.	.	8r	.	.	8r	8ryy	.	8r	.	.	8dd/	8r	.	8r	.	8dd\	.	.	.	8ddd\	.
!	!	!	!	!	!	!	!	!	!	!	!	!	!	!	!	!	!LO:TX:t=P:problem:skreślona nuta	!	!	!	!	!LO:TX:t=P:problem:skreślona nuta	!	!	!	!	!
.	.	4.C^/	.	4.g^/	.	.	.	4.d 4.G/	4.C\	.	4.dd 4.g^/	4.ryy	.	4.g^/	4.f\	.	4cc/	4.f\	.	4.f 4.d^>/	.	4cc\	.	.	.	4ccc\	.
.	.	.	.	.	.	.	.	.	.	.	.	.	.	.	.	.	8b/	.	.	.	.	8b\	.	.	.	8bb\	.
*	*	*	*	*	*	*	*	*v	*v	*	*	*	*	*v	*v	*	*	*	*	*	*	*	*	*	*	*	*
*	*	*	*	*	*	*	*	*	*	*v	*v	*	*	*	*	*	*	*	*	*	*	*	*	*	*
!!LO:PB:g=original
=8	=8	=8	=8	=8	=8	=8	=8	=8	=8	=8	=8	=8	=8	=8	=8	=8	=8	=8	=8	=8	=8	=8	=8	=8
2.r	.	4C/	.	4cc\	.	2.r	.	4G 4E 4C\	.	4ee 4cc\	.	4g 4c/	.	(8cc/L	4e\	.	4e 4c/	.	(8cc\L	.	2.ryy	.	(8ccc\L	.
.	.	.	.	.	.	.	.	.	.	.	.	.	.	8ee/)	.	.	.	.	8ee\)	.	.	.	8eee\)	.
.	.	8r	.	8r	.	.	.	8r	.	8r	.	8r	.	8dd'/J	8r	.	8r	.	8dd'\J	.	.	.	8ddd'\J	.
.	.	4r	.	4r	.	.	.	4G 4E 4C\	.	4ee 4cc\	.	4g 4c/	.	8cc'</L	4g\	.	4e 4c/	.	8cc'\L	.	.	.	8ccc'\L	.
.	.	.	.	.	.	.	.	.	.	.	.	.	.	8b'</	.	.	.	.	8b'\	.	.	.	8bb'\	.
.	.	8r	.	8r	.	.	.	8r	.	8r	.	8r	.	8a'</J	8rc	.	8r	.	8a'\J	.	.	.	8aa'\J	.
=9	=9	=9	=9	=9	=9	=9	=9	=9	=9	=9	=9	=9	=9	=9	=9	=9	=9	=9	=9	=9	=9	=9	=9	=9
16qqRa/LL	.	.	.	.	.	.	.	.	.	.	.	.	.	.	.	.	.	.	.	.	.	.	.	.
16qqRa/JJ	.	.	.	.	.	.	.	.	.	.	.	.	.	.	.	.	.	.	.	.	.	.	.	.
*^	*	*	*	*	*	*	*	*^	*	*	*	*	*	*	*	*	*	*	*	*	*	*	*	*
!	!	!	!	!LO:DY:rj	!	!LO:DY:rj	!	!LO:DY:rj	!	!	!	!	!	!	!	!	!	!	!	!LO:DY:rj	!	!LO:DY:rj	!	!	!	!
4Ra/	4Ra\	.	4C/	f	8r	f	8r	f	8r	4C\	.	8r	f	8r	f	8g/L	8r	.	8r	f	8g'/L	f	8gg\L	.	8gg\L	.
.	.	.	.	.	8g/L	.	8cc/L	.	8GL 8E/	.	.	8eeL 8cc\	.	8gL 8c/	.	8a/	8g\L	.	8eL 8c/	.	8a'/	.	8aa\	.	8aa\	.
8r	8ryy	.	8r	.	8g/J	.	8cc/J	.	8GJ 8E/	8r	.	8eeJ 8cc\	.	8gJ 8c/	.	8b/J	8g\J	.	8eJ 8c/	.	8b'/J	.	8bb\J	.	8bb\J	.
!	!	!	!	!	!	!	!LO:TX:t=P:problem:skreślone nuty w tt. nr 10-11	!	!	!	!	!	!	!	!	!	!	!	!	!	!	!	!	!	!	!
.	.	.	.	.	.	.	.	.	.	.	.	.	.	.	.	(8qdd/	.	.	.	.	(8qdd/	.	(8qddd/	.	(8qddd/	.
*	*	*	*	*	*tremolo	*	*tremolo	*	*tremolo	*	*	*tremolo	*	*tremolo	*	*	*tremolo	*	*tremolo	*	*	*	*	*	*	*
4r	4ryy	.	4r	.	8g/L	.	8cc/L	.	8GL 8E/	4C\	.	8eeL 8cc\	.	8gL 8c/	.	8cc/L)	8g\L	.	8eL 8c/	.	8cc/L)	.	8ccc\L)	.	8ccc\L)	.
.	.	.	.	.	8g/	.	8cc/	.	8G 8E/	.	.	8ee 8cc\	.	8g 8c/	.	8b/	8g\	.	8e 8c/	.	8b'/	.	8bb'\	.	8bb'\	.
8r	8ryy	.	8r	.	8g/J	.	8cc/J	.	8GJ 8E/	8r	.	8eeJ 8cc\	.	8gJ 8c/	.	8cc'</J	8g\J	.	8eJ 8c/	.	8cc'/J	.	8ccc'\J	.	8ccc'\J	.
*	*	*	*	*	*Xtremolo	*	*Xtremolo	*	*Xtremolo	*	*	*Xtremolo	*	*Xtremolo	*	*	*Xtremolo	*	*Xtremolo	*	*	*	*	*	*	*
=10	=10	=10	=10	=10	=10	=10	=10	=10	=10	=10	=10	=10	=10	=10	=10	=10	=10	=10	=10	=10	=10	=10	=10	=10	=10	=10
16qqRa/LL	.	.	.	.	.	.	.	.	.	.	.	.	.	.	.	.	.	.	.	.	.	.	.	.	.	.
16qqRa/JJ	.	.	.	.	.	.	.	.	.	.	.	.	.	.	.	.	.	.	.	.	.	.	.	.	.	.
4Ra/	4Ra\	.	4C/	.	8r	.	8r	.	8rA	4C\	.	8r	.	8r	.	4ee/	8re	.	8r	.	4ee\	.	4eee\	.	4eee\	.
.	.	.	.	.	8g/L	.	8cc/L	.	8GL 8E/	.	.	8eeL 8cc\	.	8gL 8c/	.	.	8g\L	.	8eL 8c/	.	.	.	.	.	.	.
8r	8ryy	.	8r	.	8g/J	.	8cc/J	.	8GJ 8E/	8r	.	8eeJ 8cc\	.	8gJ 8c/	.	8dd/	8g\J	.	8eJ 8c/	.	8dd\	.	8ddd\	.	8ddd\	.
*	*	*	*	*	*tremolo	*	*tremolo	*	*tremolo	*	*	*tremolo	*	*tremolo	*	*	*tremolo	*	*tremolo	*	*	*	*	*	*	*
4r	4ryy	.	4r	.	8g/L	.	8cc/L	.	8GL 8E/	4C\	.	8eeL 8cc\	.	8gL 8c/	.	4b/	8g\L	.	8eL 8c/	.	4b\	.	4bb\	.	4bb\	.
.	.	.	.	.	8g/	.	8cc/	.	8G 8E/	.	.	8ee 8cc\	.	8g 8c/	.	.	8g\	.	8e 8c/	.	.	.	.	.	.	.
8r	8ryy	.	8r	.	8g/J	.	8cc/J	.	8GJ 8E/	8r	.	8eeJ 8cc\	.	8gJ 8c/	.	8cc/	8g\J	.	8eJ 8c/	.	8cc\	.	8ccc\	.	8ccc\	.
*	*	*	*	*	*Xtremolo	*	*	*	*	*	*	*	*	*	*	*	*	*	*	*	*	*	*	*	*	*
=11	=11	=11	=11	=11	=11	=11	=11	=11	=11	=11	=11	=11	=11	=11	=11	=11	=11	=11	=11	=11	=11	=11	=11	=11	=11	=11
*	*	*	*	*	*	*	*	*	*	*	*	*	*	*^	*	*	*	*	*	*	*	*	*	*	*	*
*tremolo	*	*	*	*	*	*	*	*	*	*	*	*2\right	*	*	*	*	*tremolo	*	*	*	*	*	*	*	*	*	*
32Ra/LLL	4Ra\	.	4D\	.	4g/	.	2.r	.	8BL 8G/	4D\	.	8dd\L	.	8g/L	8g\L	.	8dd/L	8g\L	.	8gL 8B/	.	(8dd\L	.	(8ddd\L	.	(8ddd\L	.
32Ra/	.	.	.	.	.	.	.	.	.	.	.	.	.	.	.	.	.	.	.	.	.	.	.	.	.	.	.
32Ra/	.	.	.	.	.	.	.	.	.	.	.	.	.	.	.	.	.	.	.	.	.	.	.	.	.	.	.
32Ra/	.	.	.	.	.	.	.	.	.	.	.	.	.	.	.	.	.	.	.	.	.	.	.	.	.	.	.
32Ra/	.	.	.	.	.	.	.	.	8B 8G/	.	.	8dd\	.	8g/	8g\	.	8dd/	8g\	.	8g 8B/	.	8gg\)	.	8ggg\)	.	8ggg\)	.
32Ra/	.	.	.	.	.	.	.	.	.	.	.	.	.	.	.	.	.	.	.	.	.	.	.	.	.	.	.
32Ra/	.	.	.	.	.	.	.	.	.	.	.	.	.	.	.	.	.	.	.	.	.	.	.	.	.	.	.
32Ra/	.	.	.	.	.	.	.	.	.	.	.	.	.	.	.	.	.	.	.	.	.	.	.	.	.	.	.
32Ra/	8rEE	.	8r	.	8r	.	.	.	8BJ 8G/	8r	.	8dd\	.	8g/J	8g\J	.	8dd/J	8g\J	.	8gJ 8B/	.	8b'\J	.	8bb'\J	.	8bb'\J	.
32Ra/	.	.	.	.	.	.	.	.	.	.	.	.	.	.	.	.	.	.	.	.	.	.	.	.	.	.	.
32Ra/	.	.	.	.	.	.	.	.	.	.	.	.	.	.	.	.	.	.	.	.	.	.	.	.	.	.	.
32Ra/	.	.	.	.	.	.	.	.	.	.	.	.	.	.	.	.	.	.	.	.	.	.	.	.	.	.	.
32Ra/	[[4Ra\	.	4D\	.	4.dd^<\	.	.	.	8cL 8A/	4D\	.	8dd\	.	8a/L	8f#X\L	.	8ff#XL 8a\	4.ryy	.	8f#XL 8c/	.	(8dd\L	.	(8ddd\L	.	(8ddd\L	.
32Ra/	.	.	.	.	.	.	.	.	.	.	.	.	.	.	.	.	.	.	.	.	.	.	.	.	.	.	.
32Ra/	.	.	.	.	.	.	.	.	.	.	.	.	.	.	.	.	.	.	.	.	.	.	.	.	.	.	.
32Ra/	.	.	.	.	.	.	.	.	.	.	.	.	.	.	.	.	.	.	.	.	.	.	.	.	.	.	.
32Ra/	.	.	.	.	.	.	.	.	8c 8A/	.	.	8dd\	.	8a/	8f#\	.	8ff# 8a\	.	.	8f# 8c/	.	8cc\)	.	8ccc\)	.	8ccc\)	.
32Ra/	.	.	.	.	.	.	.	.	.	.	.	.	.	.	.	.	.	.	.	.	.	.	.	.	.	.	.
32Ra/	.	.	.	.	.	.	.	.	.	.	.	.	.	.	.	.	.	.	.	.	.	.	.	.	.	.	.
32Ra/	.	.	.	.	.	.	.	.	.	.	.	.	.	.	.	.	.	.	.	.	.	.	.	.	.	.	.
32Ra/	8rEE	.	8r	.	.	.	.	.	8cJ 8A/	8r	.	8dd\J	.	8a/J	8f#\J	.	8ff#J 8a\	.	.	8f#J 8c/	.	8a'\J	.	8aa'\J	.	8aa'\J	.
32Ra/	.	.	.	.	.	.	.	.	.	.	.	.	.	.	.	.	.	.	.	.	.	.	.	.	.	.	.
32Ra/	.	.	.	.	.	.	.	.	.	.	.	.	.	.	.	.	.	.	.	.	.	.	.	.	.	.	.
32Ra/JJJ	.	.	.	.	.	.	.	.	.	.	.	.	.	.	.	.	.	.	.	.	.	.	.	.	.	.	.
*Xtremolo	*	*	*	*	*	*	*	*	*	*	*	*	*	*	*	*	*	*	*	*	*	*	*	*	*	*	*
*	*	*	*	*	*	*	*	*	*	*	*	*	*	*	*	*	*v	*v	*	*	*	*	*	*	*	*	*
=12	=12	=12	=12	=12	=12	=12	=12	=12	=12	=12	=12	=12	=12	=12	=12	=12	=12	=12	=12	=12	=12	=12	=12	=12	=12	=12
*	*	*	*	*	*tremolo	*	*	*	*	*	*	*	*	*	*	*	*	*	*	*	*	*	*	*	*	*
8Ra/L	4Ra\]]	.	8G\L	.	8g/L	.	8gg\L	.	8B/L	8G\L	.	8ddL 8g/	.	8g/L	8g\L	.	8ggL 8b\	.	8gL 8B/	.	8g'/L	.	8gg\L	.	8gg'\L	.
8Ra/	.	.	8D\	.	8g/	.	8gg\	.	8B/	8D\	.	8dd 8g/	.	8g/	8g\	.	8gg 8b\	.	8g 8B/	.	8b'/	.	8bb\	.	8bb'\	.
8Ra/J	8rEE	.	8BB\J	.	8g/J	.	8gg\J	.	8B/J	8BB\J	.	8ddJ 8g/	.	8g/J	8g\J	.	8ggJ 8b\	.	8gJ 8B/	.	8dd'/J	.	8ddd\J	.	8ddd'\J	.
*	*	*	*	*	*Xtremolo	*	*Xtremolo	*	*Xtremolo	*	*	*Xtremolo	*	*	*Xtremolo	*	*Xtremolo	*	*Xtremolo	*	*	*	*	*	*	*
4Ra/	4Ra\	.	4GG/	.	4g/	.	4gg\	.	4B/	4GG\	.	4dd 4g/	.	4g/	4g\	.	4gg 4b\	.	4g 4B/	.	4gg\	.	4ggg\	.	4ggg'\	.
=:|!	=:|!	=:|!	=:|!	=:|!	=:|!	=:|!	=:|!	=:|!	=:|!	=:|!	=:|!	=:|!	=:|!	=:|!	=:|!	=:|!	=:|!	=:|!	=:|!	=:|!	=:|!	=:|!	=:|!	=:|!	=:|!	=:|!
*>B	*>B	*>B	*>B	*>B	*>B	*>B	*>B	*>B	*>B	*>B	*>B	*>B	*>B	*>B	*>B	*>B	*>B	*>B	*>B	*>B	*>B	*>B	*>B	*>B	*>B	*>B
8r	8ryy	.	8r	.	8r	.	8r	.	8r	8ryy	.	8r	.	8r	8ryy	.	8r	.	8r	.	8g/	.	8r	.	8gg\	.
=13	=13	=13	=13	=13	=13	=13	=13	=13	=13	=13	=13	=13	=13	=13	=13	=13	=13	=13	=13	=13	=13	=13	=13	=13	=13	=13
*	*	*	*	*	*	*	*	*	*	*	*	*	*	*	*	*	*^	*	*	*	*	*	*	*	*	*
*	*	*	*	*	*	*	*	*	*	*	*	*	*	*	*	*	*	*	*	*	*	*	*	*2\right	*	*	*
!	!	!	!	!	!	!	!LO:TX:t=P:problem:skreślona dynamika p	!	!	!	!	!	!LO:DY:rj	!	!	!LO:DY:rj	!	!	!LO:DY:rj	!	!	!	!	!	!	!LO:TX:t=P:problem:skreślone nuty w t. nr 14	!
2.rF	2.rGG	.	4GG/	.	4G/	p	2.r	.	4d 4G/	4GG\	.	4dd 4g/	p	4g/	4g\	p	4g/	4f\	p	4fn 4d/	p	(8cc#X\L	.	2.ggT\	.	((8ccc#X\L	.
.	.	.	.	.	.	.	.	.	.	.	.	.	.	.	.	.	.	.	.	.	.	8dd\)	.	.	.	8ddd\))	.
.	.	.	8r	.	8r	.	.	.	8rG	8rGG	.	8r	.	8r	8ryy	.	8r	8ryy	.	8r	.	8ccn'\J	.	.	.	8ccc'\J	.
.	.	.	4r	.	4G/	.	.	.	4d 4G/	4r	.	4dd 4g/	.	4g/	4g\	.	4g/	4f\	.	4f 4d/	.	8b'/L	.	.	.	8bb'\L	.
.	.	.	.	.	.	.	.	.	.	.	.	.	.	.	.	.	.	.	.	.	.	8a'/	.	.	.	8aa'\	.
.	.	.	8r	.	8r	.	.	.	8rG	8rGG	.	8r	.	8r	8ryy	.	8r	8ryy	.	8r	.	8g'/J	.	.	.	8gg'\J	.
*	*	*	*	*	*	*	*	*	*	*	*	*	*	*v	*v	*	*	*	*	*	*	*	*	*	*	*	*
*	*	*	*	*	*	*	*	*	*	*	*	*	*	*	*	*v	*v	*	*	*	*	*	*	*	*	*
=14	=14	=14	=14	=14	=14	=14	=14	=14	=14	=14	=14	=14	=14	=14	=14	=14	=14	=14	=14	=14	=14	=14	=14	=14	=14
16qqRa/LL	.	.	.	.	.	.	.	.	.	.	.	.	.	.	.	.	.	.	.	.	.	.	.	.	.
16qqRa/JJ	.	.	.	.	.	.	.	.	.	.	.	.	.	.	.	.	.	.	.	.	.	.	.	.	.
4Ra/	2.rGG	.	4C/	.	8G/L	.	4cc 4c/	p	4c 4G/	4C\	.	4ee 4cc\	.	4g 4c/	.	4g 4e/	.	4e 4c/	.	8g'\L	.	8gg\L	.	8gg\L	.
.	.	.	.	.	8c/	.	.	.	.	.	.	.	.	.	.	.	.	.	.	8cc'\	.	8ccc'\	.	8ccc\	.
8r	.	.	8r	.	8e/J	.	8r	.	8rB	8rGG	.	8r	.	8r	.	8r	.	8r	.	8ee'\J	.	8eee'\J	.	8eee\J	.
4.RaTT/	.	.	4.C^/	.	8g^/L	.	4.cc 4.c/	.	4.c 4.G^/	4r	.	4.ee 4.cc\	.	4.g 4.c^/	.	4.g 4.e/	.	4.e 4.c^>/	.	(4.gg^<\|	.	4.ggg\|	.	4.ggg\	.
.	.	.	.	.	8e/	.	.	.	.	.	.	.	.	.	.	.	.	.	.	.	.	.	.	.	.
.	.	.	.	.	8c/J	.	.	.	.	8rGG	.	.	.	.	.	.	.	.	.	.	.	.	.	.	.
=15	=15	=15	=15	=15	=15	=15	=15	=15	=15	=15	=15	=15	=15	=15	=15	=15	=15	=15	=15	=15	=15	=15	=15	=15	=15
*	*	*	*	*	*	*	*	*	*	*	*	*	*	*^	*	*^	*	*	*	*	*	*	*	*	*
!	!	!	!LO:TX:t=P:problem:skreślona nuta	!	!	!	!	!	!	!	!	!	!	!	!	!	!	!	!	!	!	!	!	!	!	!	!
4Ra/	2.rGG	.	4G\	.	4G/	.	2.r	.	4d 4G/	4G\	.	4dd 4g/	.	4g/	4g\	.	4g/	4d\	.	4f 4d/	.	(8cc#X\L)	.	2.ggTT\	.	8ccc#X\L	.
!	!	!	!	!	!	!	!	!	!	!	!	!	!	!	!	!	!	!	!	!	!	!LO:TX:t=P:problem:nadpisane nuty w t. nr 14	!	!	!	!	!
.	.	.	.	.	.	.	.	.	.	.	.	.	.	.	.	.	.	.	.	.	.	8dd\)	.	.	.	8ddd\	.
8r	.	.	8r	.	8r	.	.	.	8rA	8rAA	.	8r	.	8r	8ryy	.	8r	8ryy	.	8r	.	8ccn'\J	.	.	.	8ccc\J	.
4r	.	.	4r	.	4G/	.	.	.	4d 4G/	4GG\	.	4dd 4g/	.	4g/	4g\	.	4g 4d/	4ryy	.	4f 4d/	.	8bn'/L	.	.	.	8bb\L	.
.	.	.	.	.	.	.	.	.	.	.	.	.	.	.	.	.	.	.	.	.	.	8a'/	.	.	.	8aa\	.
8r	.	.	8r	.	8r	.	.	.	8rA	8rGG	.	8r	.	8r	8ryy	.	8r	8ryy	.	8r	.	8g'/J	.	.	.	8gg\J	.
*	*	*	*	*	*	*	*	*	*	*	*	*	*	*v	*v	*	*	*	*	*	*	*	*	*	*	*	*
*	*	*	*	*	*	*	*	*	*	*	*	*	*	*	*	*v	*v	*	*	*	*	*	*	*	*	*
=16	=16	=16	=16	=16	=16	=16	=16	=16	=16	=16	=16	=16	=16	=16	=16	=16	=16	=16	=16	=16	=16	=16	=16	=16	=16
16qqRa/LL	.	.	.	.	.	.	.	.	.	.	.	.	.	.	.	.	.	.	.	.	.	.	.	.	.
16qqRa/JJ	.	.	.	.	.	.	.	.	.	.	.	.	.	.	.	.	.	.	.	.	.	.	.	.	.
4Ra/	2.rGG	.	4C/	.	8G/L	.	4cc 4c/	.	4c 4G/	4C\	.	4ee 4cc\	.	4g 4c/	.	4g 4e/	.	4e 4c/	.	8g'\L	.	8gg\L	.	8gg\L	.
.	.	.	.	.	8c/	.	.	.	.	.	.	.	.	.	.	.	.	.	.	8cc'\	.	8ccc'\	.	8ccc\	.
8r	.	.	8r	.	8e/J	.	8r	.	8rA	8rGG	.	8r	.	8r	.	8r	.	8r	.	8ee'\J	.	8eee'\J	.	8eee\J	.
4.RaTT/	.	.	4r	.	8g^/L	.	4.cc 4.c/	.	4.c 4.G^/	4r	.	4.ee 4.cc\	.	4.g 4.c^/	.	4.g 4.e^/	.	4.e 4.c^>/	.	(4.gg^<\	.	4.ggg|\	.	4.ggg\	.
.	.	.	.	.	8e/	.	.	.	.	.	.	.	.	.	.	.	.	.	.	.	.	.	.	.	.
.	.	.	8r	.	8c/J	.	.	.	.	8rGG	.	.	.	.	.	.	.	.	.	.	.	.	.	.	.
.	.	.	.	.	.	.	.	.	8qqG/	.	.	.	.	.	.	.	.	.	.	.	.	.	.	.	.
=17	=17	=17	=17	=17	=17	=17	=17	=17	=17	=17	=17	=17	=17	=17	=17	=17	=17	=17	=17	=17	=17	=17	=17	=17	=17
4Ra/	2.rGG	.	4E\	.	2.r	.	2.r	.	(8G/L	4E\	.	4ee 4cc\	.	4g 4c/	.	4cc 4g/	.	4g 4c/	.	(8g/L)	.	2.r	.	8gg\L	.
.	.	.	.	.	.	.	.	.	8e/)	.	.	.	.	.	.	.	.	.	.	8ee/)	.	.	.	8eee\	.
8r	.	.	8r	.	.	.	.	.	8d/J|<	8rAA	.	8r	.	8r	.	8r	.	4r	.	8dd/J|	.	.	.	8ddd\J	.
.	.	.	.	.	.	.	.	.	(8qd/	.	.	.	.	.	.	.	.	.	.	(8qdd/	.	.	.	(8qddd/	.
4r	.	.	4E\	.	.	.	.	.	8c/L)	4E\	.	4ee 4cc\	.	4g 4c/	.	4cc 4g/	.	.	.	8cc\L)	.	.	.	8ccc\L)	.
.	.	.	.	.	.	.	.	.	8B'</	.	.	.	.	.	.	.	.	4g 4c/	.	8b'\	.	.	.	8bb'\	.
8r	.	.	8r	.	.	.	.	.	8c'</J	8r	.	8r	.	8r	.	8r	.	.	.	8cc'\J	.	.	.	8ccc'\J	.
*	*	*	*	*	*	*	*	*	*v	*v	*	*	*	*	*	*	*	*	*	*	*	*	*	*	*
!!LO:PB:g=original
=18	=18	=18	=18	=18	=18	=18	=18	=18	=18	=18	=18	=18	=18	=18	=18	=18	=18	=18	=18	=18	=18	=18	=18	=18
*	*	*	*	*	*	*	*tremolo	*	*	*	*tremolo	*	*tremolo	*	*tremolo	*	*	*	*	*	*	*	*	*
8Ra/L	4Ra\	.	8C\L	.	8cc/L	.	8cc/L	.	8cL 8E 8C\	.	8ccL 8e/	.	8gL 8c/	.	8ccL 8e/	.	8eL 8c/	.	8cc\L	.	8ccc\L	.	8ccc\L	.
8Ra/	.	.	8G\	.	8g/	.	8cc/	.	8G\	.	8cc 8e/	.	8g 8c/	.	8cc 8e/	.	8cc 8e/	.	8ee\	.	8eee\	.	8eee\	.
8Ra/J	8rEE	.	8E\J	.	8e/J	.	8cc/J	.	8E\J	.	8ccJ 8e/	.	8gJ 8c/	.	8ccJ 8e/	.	8ccJ 8e/	.	8gg\J	.	8ggg\J	.	8ggg\J	.
*	*	*	*	*	*	*	*Xtremolo	*	*	*	*Xtremolo	*	*Xtremolo	*	*Xtremolo	*	*	*	*	*	*	*	*	*
!	!LO:TX:b:t=fine	!	!	!	!	!	!	!	!	!	!	!	!	!	!	!	!	!	!	!	!	!	!LO:TX:t=P:problem:fermata na kresce taktowej	!
4Ra/	4Ra\	.	4C/	.	4c/	.	4cc/	.	4C\	.	4cc 4e/	.	4g 4c/	.	4cc 4e/	.	4cc 4e/	.	4ccc\	.	4cccc\	.	4cccc;\	.
*v	*v	*	*	*	*	*	*	*	*	*	*	*	*	*	*	*	*	*	*	*	*	*	*	*
*	*	*	*	*	*	*	*	*	*	*	*	*	*	*	*	*	*	*	*	*kcancel	*	*	*
=||	=||	=||	=||	=||	=||	=||	=||	=||	=||	=||	=||	=||	=||	=||	=||	=||	=||	=||	=||	=||	=||	=||	=||
*>C	*>C	*>C	*>C	*>C	*>C	*>C	*>C	*>C	*>C	*>C	*>C	*>C	*>C	*>C	*>C	*>C	*>C	*>C	*>C	*>C	*>C	*>C	*>C
*k[b-]	*	*k[b-]	*	*k[b-]	*	*k[b-]	*	*k[b-]	*	*k[b-]	*	*k[b-]	*	*k[b-]	*	*k[b-]	*	*k[b-]	*	*k[b-]	*	*k[b-]	*
*M6/8	*	*M6/8	*	*M6/8	*	*M6/8	*	*M6/8	*	*M6/8	*	*M6/8	*	*M6/8	*	*M6/8	*	*M6/8	*	*M6/8	*	*M6/8	*
!	!	!	!	!	!	!	!LO:DY:rj	!	!LO:DY:rj	!	!	!	!	!LO:TX:b:t=2o.	!LO:DY:a	!	!	!LO:TX:a:t=Solo	!	!LO:TX:t=P:problem:kolejność znaków ggn ff# cc#	!	!LO:TX:a:t=Trio	!
8r	.	8C/|	.	8r	.	8c|/	f	8C\	f	8r	.	8c 8C/	.	8c/	p	8c/	.	8cc\	p	8r	.	8r	.
=19	=19	=19	=19	=19	=19	=19	=19	=19	=19	=19	=19	=19	=19	=19	=19	=19	=19	=19	=19	=19	=19	=19	=19
*^	*	*	*	*	*	*	*	*	*	*	*	*	*	*^	*	*	*	*^	*	*	*	*	*
[<8Ratt/L	2.rGG	.	4F\|	.	2.r	.	4f/|	.	4F\	.	2.r	.	4f 4F/	.	2.raa	4f/	.	4f\	.	4ff/	8ff\L	.	2.r	.	2.r	.
8Ra/]	.	.	.	.	.	.	.	.	.	.	.	.	.	.	.	.	.	.	.	.	8r	.	.	.	.	.
!	!	!	!	!	!	!	!	!	!	!	!	!	!	!	!	!	!	!LO:TX:t=P:problem:skreślone nuty w t. nr 21	!	!LO:TX:t=P:problem:skreślone nuty w t. nr 21	!	!	!	!	!	!
8Ra/J|<	.	.	8A\|	.	.	.	8a/|	.	8A\	.	.	.	8a 8A\	.	.	8a/	.	8a\	.	8aa/	8aa\J	.	.	.	.	.
[<8Ratt/L	.	.	4C/|	.	.	.	4c/|	.	4C\	.	.	.	4c 4C/	.	.	4c\	.	4c\	.	4cc/	8cc\	<	.	.	.	.
8Ra/J]	.	.	.	.	.	.	.	.	.	.	.	.	.	.	.	.	.	.	.	.	8rb	.	.	.	.	.
8Ra/	.	.	8A\|	.	.	.	8a/|	.	8A\	.	.	.	8a 8A/	.	.	8a/	.	8a\	.	8aa\	8ryy	.	.	.	.	.
*	*	*	*	*	*	*	*	*	*	*	*	*	*	*	*v	*v	*	*	*	*	*	*	*	*	*	*
=20	=20	=20	=20	=20	=20	=20	=20	=20	=20	=20	=20	=20	=20	=20	=20	=20	=20	=20	=20	=20	=20	=20	=20	=20	=20
*rep	*	*	*rep	*	*	*	*rep	*	*	*	*	*	*rep	*	*	*	*	*	*	*rep	*	*	*	*	*
!	!	!	!	!	!LO:TX:t=[segno]:problem:znak segno na kresce taktowej	!	!	!	!	!	!LO:TX:t=[segno]:problem:znak segno na kresce taktowej	!	!	!	!	!	!	!	!	!	!	!LO:TX:t=[segno]:problem:znak segno na kresce taktowej	!	!LO:TX:t=[segno]:problem:znak segno na kresce taktowej	!
[<8Ratt/L	2.rGG	.	4F\|	.	2.r	.	4f/|	.	4F\	.	2.r	.	4f 4F/	.	4f/	.	4f\	.	4ff/	8ff\L	.	2.r	.	2.r	.
8Ra/]	.	.	.	.	.	.	.	.	.	.	.	.	.	.	.	.	.	.	.	8r	.	.	.	.	.
!	!	!	!	!	!	!	!	!	!	!	!	!	!	!	!	!	!	!	!LO:TX:t=P:problem:skreślone nuty w t. nr 21	!	!	!	!	!	!
8Ra/J|<	.	.	8A\|	.	.	.	8a/|	.	8A\	.	.	.	8a 8A\	.	8a/	.	8a\	.	8aa/	8aa\J	[[	.	.	.	.
[<8Ratt/L	.	.	4C/|	.	.	.	4c/|	.	4C\	.	.	.	4c 4C/	.	4c/	.	4c/	.	4cc/	8cc\	>	.	.	.	.
8Ra/J]	.	.	.	.	.	.	.	.	.	.	.	.	.	.	.	.	.	.	.	8r	.	.	.	.	.
!LO:TX:t=[segno]:problem:znak segno na kresce taktowej	!	!	!LO:TX:t=[segno]:problem:znak segno na kresce taktowej	!	!	!	!LO:TX:t=[segno]:problem:znak segno na kresce taktowej	!	!LO:TX:t=[segno]:problem:znak segno na kresce taktowej	!	!	!	!LO:TX:t=[segno]:problem:znak segno na kresce taktowej	!	!LO:TX:t=[segno]:problem:znak segno na kresce taktowej	!	!LO:TX:t=[segno]:problem:znak segno na kresce taktowej	!	!LO:TX:t=[segno]:problem:znak segno na kresce taktowej	!	!	!	!	!	!
8Ra/	.	.	8A\|	.	.	.	8a/|	.	8A\	.	.	.	8a 8A/	.	8a/	.	8a\	.	8aa\	8ryy	.	.	.	.	.
*Xrep	*	*	*Xrep	*	*	*	*Xrep	*	*	*	*	*	*Xrep	*	*	*	*	*	*	*Xrep	*	*	*	*	*
*	*	*	*	*	*	*	*	*	*	*	*	*	*	*	*	*	*	*	*v	*v	*	*	*	*	*
=21||	=21||	=21||	=21||	=21||	=21||	=21||	=21||	=21||	=21||	=21||	=21||	=21||	=21||	=21||	=21||	=21||	=21||	=21||	=21||	=21||	=21||	=21||	=21||	=21||
*>D	*>D	*>D	*>D	*>D	*>D	*>D	*>D	*>D	*>D	*>D	*>D	*>D	*>D	*>D	*>D	*>D	*>D	*>D	*>D	*>D	*>D	*>D	*>D	*>D
*	*	*	*	*	*	*	*	*	*	*	*	*	*	*	*^	*	*	*	*	*	*	*	*	*
*	*	*	*	*	*	*	*	*	*	*	*	*	*	*	*2\right	*	*	*	*	*	*	*	*	*2\right	*
!	!	!LO:DY:a	!	!	!	!	!	!LO:DY:rj	!	!LO:DY:rj	!LO:TX:t=P:problem:skreślone nuty w t. nr 23	!	!LO:TX:t=P:problem:skreślone nuty w t. nr 23	!	!	!	!	!LO:TX:a:t=1\n2\n3	!	!LO:TX:a:t=Solo	!	!	!	!LO:TX:b:t=dolce	!
4Ra/	2.rGG	pp	4F\	p	2.r	.	[2.cc/	p	4A 4C 4FF\	p	4ff 4cc/	.	4f 4A/	.	[2.ccc\	4a/	.	4a 4f 4c/	.	[>2.cc/	]	2.r	.	[2.ccc\	.
8r	.	.	8r	.	.	.	.	.	8r	.	8r	.	8r	.	.	8rg	.	8r	.	.	.	.	.	.	.
4Ra/	.	.	4FF/	.	.	.	.	.	4A 4C 4FF\	.	4ff 4cc/	.	4f 4A/	.	.	4a/	.	4a 4f 4c/	.	.	.	.	.	.	.
8r	.	.	8r	.	.	.	.	.	8r	.	8r	.	8r	.	.	8rg	.	8r	.	.	.	.	.	.	.
=22	=22	=22	=22	=22	=22	=22	=22	=22	=22	=22	=22	=22	=22	=22	=22	=22	=22	=22	=22	=22	=22	=22	=22	=22	=22
*rep	*	*	*	*	*	*	*	*	*rep	*	*rep	*	*rep	*	*	*rep	*	*rep	*	*	*	*	*	*	*
4Ra/	2.rGG	.	4FF/	.	2.r	.	4cc/]	.	4A 4C 4FF\	.	4ff 4cc/	.	4f 4A/	.	8ccc\L]	4a\	.	4a 4f 4c/	.	8cc/L]	.	2.r	.	8ccc\L]	.
.	.	.	.	.	.	.	.	.	.	.	.	.	.	.	8aa\	.	.	.	.	8a/	.	.	.	8aa'\	.
8r	.	.	8r	.	.	.	8r	.	8r	.	8r	.	8r	.	8bb-\J	8r	.	8r	.	8b-/J	.	.	.	8bb-'\J	.
4Ra/	.	.	4FF/	.	.	.	4r	.	4A 4C 4FF\	.	4ff 4cc/	.	4f 4A/	.	8ccc\L	4a\	.	4a 4f 4c/	.	8cc/L	.	.	.	8ccc'\L	.
.	.	.	.	.	.	.	.	.	.	.	.	.	.	.	8gg\	.	.	.	.	8g/	.	.	.	8gg'\	.
8r	.	.	8r	.	.	.	8r	.	8r	.	8r	.	8r	.	8aa\J	8r	.	8r	.	8a/J	.	.	.	8aa'\J	.
*Xrep	*	*	*	*	*	*	*	*	*Xrep	*	*Xrep	*	*Xrep	*	*	*Xrep	*	*Xrep	*	*	*	*	*	*	*
=23	=23	=23	=23	=23	=23	=23	=23	=23	=23	=23	=23	=23	=23	=23	=23	=23	=23	=23	=23	=23	=23	=23	=23	=23	=23
*rep	*	*	*	*	*	*	*2\right	*	*rep	*	*rep	*	*rep	*	*	*rep	*	*rep	*	*	*	*	*	*	*
4Ra/	2.rGG	.	4FF/	.	2.r	.	2.ff\	.	4A 4C 4FF\	.	4ff 4cc/	.	4f 4A/	.	2.ff/	4a\	.	4a 4f 4c/	.	2.f/	.	8r	.	(2.ff\	.
.	.	.	.	.	.	.	.	.	.	.	.	.	.	.	.	.	.	.	.	.	.	8r	.	.	.
!	!	!	!	!	!	!	!	!	!	!	!	!	!	!	!	!	!	!	!	!	!	!LO:TX:t=P:problem:skreślone nuty w tt. nr 25-26	!	!	!
8r	.	.	8r	.	.	.	.	.	8r	.	8r	.	8r	.	.	8r	.	8r	.	.	.	8ccc\|	.	.	.
4Ra/	.	.	4FF/	.	.	.	.	.	4A 4C 4FF\	.	4ff 4cc/	.	4f 4A/	.	.	4a\	.	4a 4f 4c/	.	.	.	4.cccT\	.	.	.
8r	.	.	8r	.	.	.	.	.	8r	.	8r	.	8r	.	.	8r	.	8r	.	.	.	.	.	.	.
.	.	.	.	.	.	.	.	.	.	.	.	.	.	.	.	.	.	.	.	.	.	16qqbbX/LL	.	.	.
.	.	.	.	.	.	.	.	.	.	.	.	.	.	.	.	.	.	.	.	.	.	16qqccc/JJ	.	.	.
*Xrep	*	*	*	*	*	*	*	*	*Xrep	*	*Xrep	*	*Xrep	*	*	*Xrep	*	*Xrep	*	*	*	*	*	*	*
=24	=24	=24	=24	=24	=24	=24	=24	=24	=24	=24	=24	=24	=24	=24	=24	=24	=24	=24	=24	=24	=24	=24	=24	=24	=24
*rep	*	*	*	*	*	*	*	*	*rep	*	*rep	*	*rep	*	*	*rep	*	*rep	*	*	*	*	*	*	*
4Ra/	2.rGG	.	4FF/	.	2.r	.	[4.cc/	.	4A 4C 4FF\	.	4ff 4cc/	.	4f 4A/	.	[>4.cc/	4a\	.	4a 4f 4c/	.	[4.c/	.	4fff\	.	[4.cc/)	.
8r	.	.	8r	.	.	.	.	.	8r	.	8r	.	8r	.	.	8r	.	8r	.	.	.	8r	.	.	.
4Ra/	.	.	4F\	.	.	.	4cc/]	.	4A 4C 4FF\	.	4ff 4cc/	.	4f 4A/	.	4cc/]	4a\	.	4a 4f 4c/	.	4c/]	.	4r	.	4cc/]	.
8r	.	.	8r	.	.	.	8ff\	.	8r	.	8r	.	8r	.	8ff/	8r	.	8r	.	8f/	.	8r	.	8ff\	.
*Xrep	*	*	*	*	*	*	*	*	*Xrep	*	*Xrep	*	*Xrep	*	*	*Xrep	*	*Xrep	*	*	*	*	*	*	*
=25	=25	=25	=25	=25	=25	=25	=25	=25	=25	=25	=25	=25	=25	=25	=25	=25	=25	=25	=25	=25	=25	=25	=25	=25	=25
*rep	*	*	*	*	*	*	*	*	*	*	*	*	*	*	*	*	*	*	*	*	*	*	*	*	*
4Ra/	2.rGG	.	4C/	.	4cc\	.	2.gg\	.	4G 4E 4CC\	.	4ee 4cc\	.	4g 4c/	.	2.gg/	4g/	.	4g 4e 4c/	.	2.g/	.	2.r	.	2.gg\	.
8r	.	.	8r	.	8r	.	.	.	8r	.	8r	.	8r	.	.	8rg	.	8r	.	.	.	.	.	.	.
4Ra/	.	.	4C/	.	4cc\	.	.	.	4G 4E 4C\	.	4ee 4cc\	.	4g 4c/	.	.	4g/	.	4g 4e 4c/	.	.	.	.	.	.	.
8r	.	.	8r	.	8r	.	.	.	8r	.	8r	.	8r	.	.	8rg	.	8r	.	.	.	.	.	.	.
*Xrep	*	*	*	*	*	*	*	*	*	*	*	*	*	*	*	*	*	*	*	*	*	*	*	*	*
=26	=26	=26	=26	=26	=26	=26	=26	=26	=26	=26	=26	=26	=26	=26	=26	=26	=26	=26	=26	=26	=26	=26	=26	=26	=26
*	*	*	*	*	*	*	*	*	*^	*	*	*	*	*	*	*	*	*	*	*	*	*	*	*	*
*rep	*	*	*	*	*rep	*	*	*	*	*	*	*	*	*	*	*	*	*	*	*	*	*	*	*	*	*
4Ra/	2.rGG	.	4FF/	.	4cc\	.	4ff\	.	4A 4F 4FF\	4ryy	.	4ff 4cc\	.	4a 4f\	.	(4.aa/	4a/	.	4a 4f 4c/	.	(4.a/	.	2.r	.	(4.aa\	.
.	.	.	.	.	.	.	.	.	.	.	.	.	.	.	.	.	.	.	.	.	.	.	.	.	.	<
8r	.	.	8r	.	8r	.	8r	.	8r	8ryy	.	8r	.	8r	.	.	8rg	.	8r	.	.	.	.	.	.	.
4Ra/	.	.	4AA/	.	4cc\	.	4ff\	.	4F 4C/	4AA\	.	4ff 4cc\	.	4a 4f\	.	4ddd/)	4f/	.	4a 4f 4c/	.	4dd\	.	.	.	4ddd\	[ >
8r	.	.	8r	.	8r	.	8r	.	8r	8ryy	.	8r	.	8r	.	8ccc/	8rg	.	8r	.	8cc\)	.	.	.	8ccc\)	]
*Xrep	*	*	*	*	*Xrep	*	*	*	*	*	*	*	*	*	*	*	*	*	*	*	*	*	*	*	*	*
*	*	*	*	*	*	*	*	*	*v	*v	*	*	*	*	*	*	*	*	*	*	*	*	*	*	*	*
=27	=27	=27	=27	=27	=27	=27	=27	=27	=27	=27	=27	=27	=27	=27	=27	=27	=27	=27	=27	=27	=27	=27	=27	=27	=27
4Ra/	2.rGG	.	4C/	.	4cc\	.	[2.gg\	.	4G 4E 4C\	.	4ee 4cc\	.	4g 4c/	.	[2.gg/	4e/	.	4g 4e 4c/	.	[2.g/	.	8r	.	[2.gg\	.
.	.	.	.	.	.	.	.	.	.	.	.	.	.	.	.	.	.	.	.	.	.	8r	.	.	.
8r	.	.	8r	.	8r	.	.	.	8r	.	8r	.	8r	.	.	8rg	.	8r	.	.	.	8ccc\|	.	.	.
!	!	!	!LO:TX:t=P:problem:drugi akcent nad nutą	!	!	!	!	!	!	!LO:DY:rj	!	!	!	!	!	!	!	!	!	!	!	!	!	!	!
4.Ratt/	.	.	[4.C^/	.	[4.cc^<\	.	.	.	[4.c [>4.C^<\	f	[4.ee [>4.cc^<\	.	[4.g [4.c^/	.	.	[4.e^/	.	[4.g [>4.e [4.c^/	.	.	.	4.cccT\	.	.	.
.	.	.	.	.	.	.	.	.	.	.	.	.	.	.	.	.	.	.	.	.	.	(16qqbbX/LL	.	.	.
.	.	.	.	.	.	.	.	.	.	.	.	.	.	.	.	.	.	.	.	.	.	16qqccc/JJ)	.	.	.
=28	=28	=28	=28	=28	=28	=28	=28	=28	=28	=28	=28	=28	=28	=28	=28	=28	=28	=28	=28	=28	=28	=28	=28	=28	=28
4Ra/	2.rGG	.	8C/L]	.	4cc\]	.	4gg\]	.	8c]L 8C\]	.	4ee] 4cc\]	.	4g] 4c/]	.	4gg/]	4e/]	.	4g] 4e] 4c/]	.	4g/]	.	4aa\	.	4gg\]	.
.	.	.	8D/|	.	.	.	.	.	8d| 8D\	fz	.	.	.	.	.	.	.	.	.	.	.	.	.	.	.
8r	.	.	8C/J|	.	8r	.	8r	.	8c|J 8C\	.	8r	.	8r	.	8r	8ryy	.	8r	.	8r	.	8r	.	8r	.
4r	.	.	8BB-X/L|	.	4r	.	4r	.	8B-|L 8BB-\	.	4r	.	4r	.	4r	4ryy	.	4r	.	4r	.	4r	.	4r	.
.	.	.	8AA/|	.	.	.	.	.	8A| 8AA\	.	.	.	.	.	.	.	.	.	.	.	.	.	.	.	.
8r	.	.	8GG/J|	.	8r	.	8r	.	8G|J 8GG\	.	8r	.	8r	.	8r	8ryy	.	8r	.	8r	.	8r	.	8r	.
*v	*v	*	*	*	*	*	*	*	*	*	*	*	*	*	*v	*v	*	*	*	*	*	*	*	*	*
!!LO:PB:g=original
=29	=29	=29	=29	=29	=29	=29	=29	=29	=29	=29	=29	=29	=29	=29	=29	=29	=29	=29	=29	=29	=29	=29	=29
*	*	*	*	*	*	*	*	*^	*	*^	*	*	*	*	*	*	*	*	*	*	*	*	*
2.r	.	4F\	.	2.r	.	2.r	.	8A/L	4F\	.	4dd/	4dd\	.	4a 4f\	.	4dd 4a\	.	4f 4d/	.	(8a\L	.	2.r	.	(8aa\L	.
.	.	.	.	.	.	.	.	8c#X/	.	.	.	.	.	.	.	.	.	.	.	8cc#X\)	.	.	.	8ccc#X\)	.
.	.	8r	.	.	.	.	.	8d/J	8r	.	8r	8ryy	.	8r	.	8r	.	8r	.	8dd'\J	.	.	.	8ddd\J|	.
.	.	4D\	.	.	.	.	.	8e/L	4D\	.	4dd/	4dd\	.	4a 4f\	.	4a 4f/	.	4f 4d/	.	8ee'\L	.	.	.	8eee\L|	.
.	.	.	.	.	.	.	.	8f/	.	.	.	.	.	.	.	.	.	.	.	8ff'\	.	.	.	8fff\|	.
.	.	8r	.	.	.	.	.	8a/J	8r	.	8r	8ryy	.	8r	.	8r	.	8r	.	8aa'\J	.	.	.	8aaa\J|	.
*	*	*	*	*	*	*	*	*	*	*	*v	*v	*	*	*	*	*	*	*	*	*	*	*	*	*
=30	=30	=30	=30	=30	=30	=30	=30	=30	=30	=30	=30	=30	=30	=30	=30	=30	=30	=30	=30	=30	=30	=30	=30	=30
*^	*	*	*	*	*	*	*	*	*	*	*	*	*^	*	*	*	*	*	*	*	*	*	*	*
4r	2.rGG	.	4G\	.	4r	.	4r	.	4g/	4G\	.	4ee 4cc\	.	4g/	4g\	.	4g 4e/	.	4e 4c/	.	(8gg\L	.	2.r	.	(8ggg\L	.
.	.	.	.	.	.	.	.	.	.	.	.	.	.	.	.	.	.	.	.	.	8ccc\)	.	.	.	8aaa\)	.
8r	.	.	8r	.	8r	.	8r	.	8r	8r	.	8r	.	8r	8ryy	.	8r	.	8r	.	8ee\J|	.	.	.	8eee'\J	.
!	!	!	!	!	!	!	!	!	!	!	!	!	!	!	!	!	!LO:TX:t=P:problem:skreślona nuta	!	!	!	!	!	!	!	!	!
!	!	!	!	!	!	!	!	!	!LO:TX:t=P:problem:skreślona nuta	!	!	!	!	!	!	!	!LO:SIC:v:n=1:s=4.bn	!	!LO:SIC:v:n=2:s=4.Bn	!	!	!	!	!	!	!
4.Ratt/	.	.	4.GG^/	.	(4.g/	.	4.gg^<\	.	4.d/	4.F 4.GG\	.	4.dd 4.g^/	.	4.g/	4.g\	.	4.b- 4.d^/	.	4.f 4.B-^>/	.	(8gg\L	.	.	.	(8ggg\L	.
.	.	.	.	.	.	.	.	.	.	.	.	.	.	.	.	.	.	.	.	.	8ff\)	.	.	.	8fff\)	.
.	.	.	.	.	.	.	.	.	.	.	.	.	.	.	.	.	.	.	.	.	8dd'\J	.	.	.	8ddd'\J	.
*	*	*	*	*	*	*	*	*	*	*	*	*	*	*v	*v	*	*	*	*	*	*	*	*	*	*	*
=31	=31	=31	=31	=31	=31	=31	=31	=31	=31	=31	=31	=31	=31	=31	=31	=31	=31	=31	=31	=31	=31	=31	=31	=31	=31
*	*	*	*	*	*	*	*tremolo	*	*	*	*	*tremolo	*	*tremolo	*	*tremolo	*	*tremolo	*	*	*	*	*	*	*
8Ra/L	2.rGG	.	8C\L	.	8cc/L)	.	8cc/L	.	8cL 8E 8C\	4.ryy	.	8ccL 8e/	.	8gL 8c/	.	8ccL 8e/	.	8eL 8c/	.	8cc\L	.	2.r	.	8ccc\L	.
8r	.	.	8G\	.	8g/	.	8cc/	.	8G\	.	.	8cc 8e/	.	8g 8c/	.	8cc 8e/	.	8e 8c/	.	8ee\	.	.	.	8eee\	.
8Ra/J	.	.	8E\J	.	8e/J	.	8cc/J	.	8E\J	.	.	8ccJ 8e/	.	8gJ 8c/	.	8ccJ 8e/	.	8eJ 8c/	.	8gg\J	.	.	.	8ggg\J	.
*	*	*	*	*	*	*	*Xtremolo	*	*	*	*	*Xtremolo	*	*Xtremolo	*	*Xtremolo	*	*Xtremolo	*	*	*	*	*	*	*
4Ra/	.	.	4C/	.	4c/	.	4cc/	.	4C/	4ryy	.	4cc 4e/	.	4g 4c/	.	4cc 4e/	.	4e 4c/	.	4cc\	.	.	.	4ccc\	.
!	!	!	!	!	!	!	!	!	!	!	!	!	!	!	!	!	!	!	!	!	!	!	!	!LO:TX:t=P:problem:skreślona nuta	!
8r	.	.	8r	.	8r	.	8r	.	8c#X/	8r	.	8r	.	8r	.	8r	.	8r	.	8cc#X\|	.	.	.	8ccc#X\	.
=32	=32	=32	=32	=32	=32	=32	=32	=32	=32	=32	=32	=32	=32	=32	=32	=32	=32	=32	=32	=32	=32	=32	=32	=32	=32
16qqRa/LL	.	.	.	.	.	.	.	.	.	.	.	.	.	.	.	.	.	.	.	.	.	.	.	.	.
16qqRa/JJ	.	.	.	.	.	.	.	.	.	.	.	.	.	.	.	.	.	.	.	.	.	.	.	.	.
!	!	!	!	!	!	!LO:DY:rj	!	!	!	!	!LO:DY:rj	!	!	!	!	!	!	!	!	!	!LO:DY:rj	!	!LO:DY:rj	!	!LO:DY:rj
4Ra/	4Ra\	.	4GG/	.	4g/	f	2.r	.	(8c#X/L	4GG\	f	8r	.	8r	.	8r	.	8r	.	(8cc#X\L	f	2.ggT\	f	8ccc#X\L	f
!	!	!	!	!	!	!	!	!	!	!	!	!	!	!	!	!	!	!	!LO:DY:rj	!	!	!	!	!	!
.	.	.	.	.	.	.	.	.	8d/)	.	.	8ddL 8g/	.	8g\L	.	8gL 8f/	.	8fL 8d/	f	8dd\)	.	.	.	8ddd\	.
8r	8rEE	.	8r	.	(16g/LL	.	.	.	8cn/J	8rAA	.	8ddJ 8g/	.	8g\J	.	8gJ 8f/	.	8fJ 8d/	.	8ccn\J|	.	.	.	8ccc\J	.
.	.	.	.	.	16g/JJ	.	.	.	.	.	.	.	.	.	.	.	.	.	.	.	.	.	.	.	.
16qqRa/LL	.	.	.	.	.	.	.	.	.	.	.	.	.	.	.	.	.	.	.	.	.	.	.	.	.
16qqRa/JJ	.	.	.	.	.	.	.	.	.	.	.	.	.	.	.	.	.	.	.	.	.	.	.	.	.
*	*	*	*	*	*tremolo	*	*	*	*	*	*	*tremolo	*	*tremolo	*	*tremolo	*	*tremolo	*	*	*	*	*	*	*
!	!	!	!	!	!LO:TX:b:t=..	!	!	!	!LO:SIC:v:s=8Bn	!	!	!	!	!	!	!	!	!	!	!LO:SIC:v:s=8bn	!	!	!	!LO:SIC:v:s=8bbn	!
4Ra/	4rEE	.	4r	.	8g/L)	.	.	.	8B-/L	4rAA	.	8ddL 8g/	.	8g\L	.	8gL 8f/	.	8fL 8d/	.	8b-/L	.	.	.	8bb-\L	.
.	.	.	.	.	8g'/	.	.	.	8A/	.	.	8dd 8g/	.	8g\	.	8g 8f/	.	8f 8d/	.	8a/	.	.	.	8aa\	.
8r	8rEE	.	8r	.	8g'/J	.	.	.	8G/J	8rAA	.	8ddJ 8g/	.	8g\J	.	8gJ 8f/	.	8fJ 8d/	.	8g/J	.	.	.	8gg\J	.
*	*	*	*	*	*Xtremolo	*	*	*	*	*	*	*Xtremolo	*	*Xtremolo	*	*Xtremolo	*	*Xtremolo	*	*	*	*	*	*	*
=33	=33	=33	=33	=33	=33	=33	=33	=33	=33	=33	=33	=33	=33	=33	=33	=33	=33	=33	=33	=33	=33	=33	=33	=33	=33
16qqRa/LL	.	.	.	.	.	.	.	.	.	.	.	.	.	.	.	.	.	.	.	.	.	.	.	.	.
16qqRa/JJ	.	.	.	.	.	.	.	.	.	.	.	.	.	.	.	.	.	.	.	.	.	.	.	.	.
!	!	!	!	!	!	!	!	!LO:DY:rj	!	!	!	!	!	!	!	!	!	!	!	!	!	!	!	!	!
4Ra/	4Ra\	.	4C/	.	8r	.	4cc/	f	4c/	4C\	.	8r	.	8r	.	8r	.	8r	.	8g'/L	.	8gg\L	.	8gg'\L	.
.	.	.	.	.	8c/L	.	.	.	.	.	.	8eeL 8cc\	.	8gL 8c/	.	8gL 8e/	.	8eL 8c/	.	8cc'/	.	8ccc\	.	8ccc'\	.
8r	8rEE	.	8r	.	8e/J	.	16cc/LL	.	8rB	8rAA	.	8eeJ 8cc\	.	8gJ 8c/	.	8gJ 8e/	.	8eJ 8c/	.	8ee'/J	.	8eee\J	.	8eee'\J	.
.	.	.	.	.	.	.	[16cc/JJ	.	.	.	.	.	.	.	.	.	.	.	.	.	.	.	.	.	.
*	*	*	*	*	*	*	*tremolo	*	*	*	*	*	*	*	*	*	*	*	*	*	*	*	*	*	*
!	!	!	!	!	!	!	!LO:TX:b:t=..	!	!	!	!	!	!	!	!	!	!	!	!	!	!	!	!	!	!
4.Ratt/	4.Ra^\	.	4.C^/	.	8g/L	.	8cc/L]	.	4.c^/	4.E^\	.	4.ee 4.cc\	.	4.g 4.c^/	.	4.g 4.e^/	.	4.e 4.c^>/	.	4.gg^<\|	.	4.ggg^\	.	4.ggg'\	.
.	.	.	.	.	8e/	.	8cc'/	.	.	.	.	.	.	.	.	.	.	.	.	.	.	.	.	.	.
.	.	.	.	.	8c/J	.	8cc'/J	.	.	.	.	.	.	.	.	.	.	.	.	.	.	.	.	.	.
*	*	*	*	*	*	*	*Xtremolo	*	*	*	*	*	*	*	*	*	*	*	*	*	*	*	*	*	*
=34	=34	=34	=34	=34	=34	=34	=34	=34	=34	=34	=34	=34	=34	=34	=34	=34	=34	=34	=34	=34	=34	=34	=34	=34	=34
4Ra/	4Ra\	.	4G\	.	4G/	.	2.r	.	8c#X/L	4G\	.	8r	.	8r	.	8r	.	8r	.	(8cc#X\L	.	2.ggT\	.	(8ccc#X\L	.
.	.	.	.	.	.	.	.	.	8d/	.	.	8ddL 8g/	.	8g\L	.	8gL 8f/	.	8fL 8d/	.	8dd\)	.	.	.	8ddd\)	.
8r	8rEE	.	8r	.	16g/LL	.	.	.	8cn/J	8r	.	8ddJ 8g/	.	8g\J	.	8gJ 8f/	.	8fJ 8d/	.	8ccn'\J	.	.	.	8ccc'\J	.
.	.	.	.	.	[16g/JJ	.	.	.	.	.	.	.	.	.	.	.	.	.	.	.	.	.	.	.	.
16qqRa/LL	.	.	.	.	.	.	.	.	.	.	.	.	.	.	.	.	.	.	.	.	.	.	.	.	.
16qqRa/JJ	.	.	.	.	.	.	.	.	.	.	.	.	.	.	.	.	.	.	.	.	.	.	.	.	.
*	*	*	*	*	*	*	*	*	*	*	*	*tremolo	*	*tremolo	*	*tremolo	*	*tremolo	*	*	*	*	*	*	*
!	!	!	!	!	!	!	!	!	!LO:SIC:v:s=8Bn	!	!	!	!	!	!	!	!	!	!	!LO:SIC:v:s=8bn	!	!	!	!LO:SIC:v:s=8bbn	!
4Ra/	4rEE	.	4GG/	.	8g/L]	.	.	.	8B-/L	4GG\	.	8ddL 8g/	.	8g\L	.	8gL 8f/	.	8fL 8d/	.	8b-'/L	.	.	.	8bb-'\L	.
.	.	.	.	.	8g/	.	.	.	8A/	.	.	8dd 8g/	.	8g\	.	8g 8f/	.	8f 8d/	.	8a'/	.	.	.	8aa'\	.
8r	8rEE	.	8r	.	8g/J	.	.	.	8G/J	8rAA	.	8ddJ 8g/	.	8g\J	.	8gJ 8f/	.	8fJ 8d/	.	8g'/J	.	.	.	8gg'\J	.
*	*	*	*	*	*	*	*	*	*	*	*	*Xtremolo	*	*Xtremolo	*	*Xtremolo	*	*Xtremolo	*	*	*	*	*	*	*
=35	=35	=35	=35	=35	=35	=35	=35	=35	=35	=35	=35	=35	=35	=35	=35	=35	=35	=35	=35	=35	=35	=35	=35	=35	=35
16qqRa/LL	.	.	.	.	.	.	.	.	.	.	.	.	.	.	.	.	.	.	.	.	.	.	.	.	.
16qqRa/JJ	.	.	.	.	.	.	.	.	.	.	.	.	.	.	.	.	.	.	.	.	.	.	.	.	.
4Ra/	4Ra\	.	4C/	.	8r	.	(4cc/	.	4c/	4C\	.	8r	.	8r	.	8r	.	8r	.	8g/L	.	8gg\L	.	8gg'\L	.
.	.	.	.	.	8c/L	.	.	.	.	.	.	8eeL 8cc\	.	8gL 8c/	.	8gL 8e/	.	8eL 8c/	.	8cc/	.	8ccc\	.	8ccc'\	.
8r	8rEE	.	8r	.	8e/J	.	16cc/LL	.	8r	8r	.	8eeJ 8cc\	.	8gJ 8c/	.	8gJ 8e/	.	8eJ 8c/	.	8ee/J	.	8eee\J	.	8eee'\J	.
.	.	.	.	.	.	.	16cc/JJ	.	.	.	.	.	.	.	.	.	.	.	.	.	.	.	.	.	.
*	*	*	*	*	*	*	*tremolo	*	*	*	*	*	*	*	*	*	*	*	*	*	*	*	*	*	*
!	!	!	!	!	!	!	!LO:TX:b:t=..	!	!LO:TX:t=P:problem:skreślona nuta	!	!	!	!	!	!	!	!	!	!	!	!	!	!	!	!
4.Ratt/	4.Ra\	.	4.C/	.	8g/L	.	8cc/L)	.	4.c/	4.C\	.	4.ee 4.cc^<\	.	4.g 4.c/	.	4.g 4.e/	.	4.e 4.c/	.	4gg\	.	4ggg\	.	4ggg\|	.
.	.	.	.	.	8e/	.	8cc'/	.	.	.	.	.	.	.	.	.	.	.	.	.	.	.	.	.	.
.	.	.	.	.	8c/J	.	8cc'/J	.	.	.	.	.	.	.	.	.	.	.	.	8g/	.	8gg\	.	8gg\	.
*	*	*	*	*	*	*	*Xtremolo	*	*	*	*	*	*	*	*	*	*	*	*	*	*	*	*	*	*
=36	=36	=36	=36	=36	=36	=36	=36	=36	=36	=36	=36	=36	=36	=36	=36	=36	=36	=36	=36	=36	=36	=36	=36	=36	=36
4Ra/	4Ra\	.	4E\	.	4G/	.	4cc/	.	8G/L	4E\	.	8r	.	8r	.	8r	.	8r	.	(8g/L	.	(8gg\L	.	(8gg\L	.
.	.	.	.	.	.	.	.	.	8e/	.	.	8eeL 8cc\	.	8gL 8c/	.	8ccL 8g\	.	8gL 8c/	.	8ee/)	.	8eee\)	.	8eee\)	.
8r	8ryy	.	8r	.	8r	.	8r	.	8d/J	8r	.	8eeJ 8cc\	.	8gJ 8c/	.	8ccJ 8g\	.	8gJ 8c/	.	8dd/J|	.	8ddd'\J	.	8ddd\J|	.
.	.	.	.	.	.	.	.	.	(8qd/	.	.	.	.	.	.	.	.	.	.	(8qdd/	.	(8qddd/	.	(8qddd/	.
*	*	*	*	*	*	*	*	*	*	*	*	*tremolo	*	*tremolo	*	*tremolo	*	*tremolo	*	*	*	*	*	*	*
4r	4ryy	.	4E\	.	4r	.	4cc/	.	8c/L)	4E\	.	8eeL 8cc\	.	8gL 8c/	.	8ccL 8g\	.	8gL 8c/	.	8cc\L)	.	8ccc\L)	.	8ccc\L)	.
!	!	!	!	!	!	!	!	!	!LO:SIC:v:s=8Bn	!	!	!	!	!	!	!	!	!	!	!LO:SIC:v:s=8bn	!	!LO:SIC:v:s=8bbn	!	!LO:SIC:v:s=8bbn	!
.	.	.	.	.	.	.	.	.	8B-/	.	.	8ee 8cc\	.	8g 8c/	.	8cc 8g\	.	8g 8c/	.	8b-'\	.	8bb-'\	.	8bb-\	.
8r	8ryy	.	8r	.	8r	.	8r	.	8c/J	8r	.	8eeJ 8cc\	.	8gJ 8c/	.	8ccJ 8g\	.	8gJ 8c/	.	8cc'\J	.	8ccc'\J	.	8ccc\J	.
*	*	*	*	*	*	*	*	*	*	*	*	*Xtremolo	*	*Xtremolo	*	*Xtremolo	*	*Xtremolo	*	*	*	*	*	*	*
=37	=37	=37	=37	=37	=37	=37	=37	=37	=37	=37	=37	=37	=37	=37	=37	=37	=37	=37	=37	=37	=37	=37	=37	=37	=37
16qqRa/LL	.	.	.	.	.	.	.	.	.	.	.	.	.	.	.	.	.	.	.	.	.	.	.	.	.
16qqRa/JJ	.	.	.	.	.	.	.	.	.	.	.	.	.	.	.	.	.	.	.	.	.	.	.	.	.
*	*	*	*	*	*	*	*	*	*	*	*	*^	*	*	*	*	*	*	*	*	*	*	*	*	*
4Ra/	4Ra\	.	4F\	.	2.r	.	4ff\	.	8A/L	4F\	.	8r	8ryy	.	8r	.	8r	.	8r	.	(8a\L	.	8aa\L	.	(8aa\L	.
.	.	.	.	.	.	.	.	.	8c#X/	.	.	8dd/L	8dd\L	.	8aL 8f\	.	8ddL 8a\	.	8fL 8d/	.	8cc#X\)	.	8ccc#X\	.	8ccc#X\)	.
8r	8ryy	.	8r	.	.	.	8r	.	8d/J	8r	.	8dd/J	8dd\J	.	8aJ 8f\	.	8ddJ 8a\	.	8fJ 8d/	.	8dd\J|	.	8ddd\J	.	8ddd\J|	.
*	*	*	*	*	*	*	*	*	*	*	*	*tremolo	*tremolo	*	*tremolo	*	*tremolo	*	*tremolo	*	*	*	*	*	*	*
4r	4ryy	.	4D\	.	.	.	4ff\	.	8e/L	4D\	.	8dd/L	8dd\L	.	8aL 8f\	.	8aL 8f/	.	8fL 8d/	.	8ee\L|	.	8eee\L	.	8eee\L|	.
.	.	.	.	.	.	.	.	.	8f/	.	.	8dd/	8dd\	.	8a 8f\	.	8a 8f/	.	8f 8d/	.	8ff\|	.	8fff\	.	8fff\|	.
8r	8ryy	.	8r	.	.	.	8r	.	8a/J	8r	.	8dd/J	8dd\J	.	8aJ 8f\	.	8aJ 8f/	.	8fJ 8d/	.	8aa\J|	.	8aaa\J	.	8aaa\J|	.
*	*	*	*	*	*	*	*	*	*	*	*	*Xtremolo	*Xtremolo	*	*	*	*	*	*	*	*	*	*	*	*	*
*	*	*	*	*	*	*	*	*	*	*	*	*v	*v	*	*	*	*	*	*	*	*	*	*	*	*	*
=38	=38	=38	=38	=38	=38	=38	=38	=38	=38	=38	=38	=38	=38	=38	=38	=38	=38	=38	=38	=38	=38	=38	=38	=38	=38
16qqRa/LL	.	.	.	.	.	.	.	.	.	.	.	.	.	.	.	.	.	.	.	.	.	.	.	.	.
16qqRa/JJ	.	.	.	.	.	.	.	.	.	.	.	.	.	.	.	.	.	.	.	.	.	.	.	.	.
*	*	*	*	*	*	*	*	*	*	*	*	*	*	*^	*	*	*	*	*	*	*	*	*	*	*
*	*	*	*	*	*	*	*	*	*	*	*	*	*	*	*2\right	*	*	*	*	*	*	*	*	*	*	*
4Ra/	4Ra\	.	4G\	.	4g/	.	4gg\	.	4g/	4G\	.	4.ee 4.cc\	.	8g/L	8g\L	.	8gL 8e/	.	8eL 8c/	.	(8gg\L	.	(8ggg\L	.	(8ggg\L	.
.	.	.	.	.	.	.	.	.	.	.	.	.	.	8g/	8g\	.	8g 8e/	.	8e 8c/	.	8ccc\)	.	8cccc\)	.	8aaa\)	.
8r	8ryy	.	8r	.	16g/LL	.	16gg\LL	.	8r	8r	.	.	.	8g/	8g\	.	8gJ 8e/	.	8eJ 8c/	.	8ee'\J	.	8eee'\J	.	8eee'\J	.
.	.	.	.	.	16g/JJ	.	16gg\JJ	.	.	.	.	.	.	.	.	.	.	.	.	.	.	.	.	.	.	.
*	*	*	*	*	*tremolo	*	*tremolo	*	*	*	*	*	*	*	*	*	*	*	*	*	*	*	*	*	*	*
!	!	!	!	!	!	!	!	!	!	!	!	!	!	!	!	!	!LO:SIC:v:n=1:s=8bn	!	!LO:SIC:v:n=2:s=8Bn	!	!	!	!	!	!	!
4.Ratt/	4.Ra^\	.	4.GG^/	.	8g/L	.	8gg\L	.	4.d^/	4.F 4.GG\	.	4.dd 4.g^>/	.	8g/	8g\	.	8b-L 8d/	.	8fL 8B-/	.	(8gg\L	.	(8ggg\L	.	(8ggg\L	.
!	!	!	!	!	!	!	!	!	!	!	!	!	!	!	!	!	!LO:SIC:v:n=1:s=8bn	!	!LO:SIC:v:n=2:s=8Bn	!	!	!	!	!	!	!
.	.	.	.	.	8g/	.	8gg\	.	.	.	.	.	.	8g/	8g\	.	8b- 8d/	.	8f 8B-/	.	8ff\)	.	8fff\)	.	8fff\)	.
!	!	!	!	!	!	!	!	!	!	!	!	!	!	!	!	!	!LO:SIC:v:n=1:s=8bn	!	!LO:SIC:v:n=2:s=8Bn	!	!	!	!	!	!	!
.	.	.	.	.	8g/J	.	8gg\J	.	.	.	.	.	.	8g/J	8g\J	.	8b-J 8d/	.	8fJ 8B-/	.	8dd'\J	.	8ddd'\J	.	8ddd'\J	.
*	*	*	*	*	*Xtremolo	*	*Xtremolo	*	*	*	*	*	*	*	*Xtremolo	*	*Xtremolo	*	*Xtremolo	*	*	*	*	*	*	*
*	*	*	*	*	*	*	*	*	*	*	*	*	*	*v	*v	*	*	*	*	*	*	*	*	*	*	*
!!LO:PB:g=original
=39	=39	=39	=39	=39	=39	=39	=39	=39	=39	=39	=39	=39	=39	=39	=39	=39	=39	=39	=39	=39	=39	=39	=39	=39	=39
16qqRa/LL	.	.	.	.	.	.	.	.	.	.	.	.	.	.	.	.	.	.	.	.	.	.	.	.	.
16qqRa/JJ	.	p	.	.	.	.	.	.	.	.	.	.	.	.	.	.	.	.	.	.	.	.	.	.	.
*	*	*	*	*	*	*	*	*	*	*	*	*	*	*	*	*	*	*	*	*2\right	*	*	*	*	*
!	!	!	!	!	!	!	!	!LO:DY:rj	!	!	!	!	!	!	!	!	!	!	!	!	!	!	!	!	!
4Ra/	2.rGG	.	4FF/	.	2.r	.	[2.cc/	p	4rd	4F 4FF\	.	4ff 4cc\	.	4a 4f\	.	4ff 4a\	.	4a 4f 4c/	.	2.cc\	.	2.r	.	[2.ccc\	.
!	!	!	!	!LO:DY:rj	!	!	!	!	!	!	!	!	!	!	!	!	!	!	!	!	!	!	!	!	!
8r	.	.	8r	p	.	.	.	.	8rd	8rAA	.	8r	.	8r	.	8r	.	8r	.	.	.	.	.	.	.
!	!	!	!	!	!	!	!	!	!LO:TX:t=P:problem:skreślone nuty w tt. nr 41-42	!	!	!	!	!	!	!	!	!	!	!	!	!	!	!	!
4Ra/	.	.	4FF/	.	.	.	.	.	[4.c/	4F\	.	4ff 4cc\	.	4a 4f\	.	4ff 4a\	.	4a 4f 4c/	.	.	.	.	.	.	.
8r	.	.	8r	.	.	.	.	.	.	8r	.	8r	.	8r	.	8r	.	8r	.	.	.	.	.	.	.
=40	=40	=40	=40	=40	=40	=40	=40	=40	=40	=40	=40	=40	=40	=40	=40	=40	=40	=40	=40	=40	=40	=40	=40	=40	=40
*rep	*	*	*	*	*	*	*	*	*	*	*	*rep	*	*rep	*	*rep	*	*rep	*	*	*	*	*	*	*
16qqRa/LL	.	.	.	.	.	.	.	.	.	.	.	.	.	.	.	.	.	.	.	.	.	.	.	.	.
16qqRa/JJ	.	.	.	.	.	.	.	.	.	.	.	.	.	.	.	.	.	.	.	.	.	.	.	.	.
4Ra/	2.rGG	.	4F\	.	2.r	.	4cc/]	.	8c/L]	4F\	.	4ff 4cc\	.	4a 4f\	.	4ff 4a\	.	4a 4f 4c/	.	8cc/L	.	2.r	.	8ccc\L]	.
.	.	.	.	.	.	.	.	.	8A/	.	.	.	.	.	.	.	.	.	.	8a/	.	.	.	8aa\	.
8r	.	.	8r	.	.	.	8r	.	8B-/J	8r	.	8r	.	8r	.	8r	.	8r	.	8b-/J	.	.	.	8bb-\J	.
4Ra/	.	.	4F\	.	.	.	4r	.	8c/L	4F\	.	4ff 4cc\	.	4a 4f\	.	4ff 4a\	.	4a 4f 4c/	.	8cc/L	.	.	.	8ccc\L	.
.	.	.	.	.	.	.	.	.	8A/	.	.	.	.	.	.	.	.	.	.	8a/	.	.	.	8aa\	.
8r	.	.	8r	.	.	.	8r	.	8F/J	8r	.	8r	.	8r	.	8r	.	8r	.	8f/J	.	.	.	8ff\J	.
*Xrep	*	*	*	*	*	*	*	*	*	*	*	*Xrep	*	*Xrep	*	*Xrep	*	*Xrep	*	*	*	*	*	*	*
=41	=41	=41	=41	=41	=41	=41	=41	=41	=41	=41	=41	=41	=41	=41	=41	=41	=41	=41	=41	=41	=41	=41	=41	=41	=41
*	*	*	*	*	*	*	*	*	*	*^	*	*	*	*	*	*	*	*	*	*	*	*	*	*	*
*	*	*	*	*	*2\right	*	*	*	*2\right	*	*	*	*	*	*	*	*	*	*	*	*	*	*	*	*	*
!	!	!	!	!	!	!LO:DY:rj	!	!LO:DY:rj	!	!	!	!	!	!	!	!	!	!	!	!	!	!	!	!	!	!
2.r	2.rGG	.	4BB-/	.	[2.dd\	p	[2.ff\	p	(2.f/	2.d\	4BB-\	.	4ff 4dd\	.	4b- 4f\	.	4dd 4b-\	.	4b- 4f 4d/	.	(2.ff\	.	(2.ddd\	.	(2.fff\	.
.	.	.	8r	.	.	.	.	.	.	.	8r	.	8r	.	8r	.	8r	.	8r	.	.	.	.	.	.	.
.	.	.	4BB-'/	.	.	.	.	.	.	.	4BB-\	.	4ff 4dd\	.	4b- 4f\	.	4dd 4b-\	.	4b- 4f 4d/	.	.	.	.	.	.	.
.	.	.	8r	.	.	.	.	.	.	.	8r	.	8r	.	8r	.	8r	.	8r	.	.	.	.	.	.	.
=42	=42	=42	=42	=42	=42	=42	=42	=42	=42	=42	=42	=42	=42	=42	=42	=42	=42	=42	=42	=42	=42	=42	=42	=42	=42	=42
*	*	*	*	*	*	*	*	*	*	*	*	*	*rep	*	*rep	*	*rep	*	*rep	*	*	*	*	*	*	*
2.r	2.rGG	.	4BB-/	.	4dd\]	.	4ff\]	.	[4.d/)	[4.B-\	4BB-\	.	4ff 4dd\	.	4b- 4f\	.	4dd 4b-\	.	4b- 4f 4d/	.	[4.dd\)	.	[4.bb-\)	.	[4.ddd\)	.
.	.	.	8r	.	8r	.	8r	.	.	.	8r	.	8r	.	8r	.	8r	.	8r	.	.	.	.	.	.	.
.	.	.	4BB-/	.	4r	.	4r	.	4d/]	4B-\]	4BB-\	.	4ff 4dd\	.	4b- 4f\	.	4dd 4b-\	.	4b- 4f 4d/	.	4dd\]	.	4bb-\]	.	4ddd\]	.
.	.	.	8r	.	8r	.	8r	.	8B-/	8ryy	8r	.	8r	.	8r	.	8r	.	8r	.	8b-\	.	8r	.	8bb-\	.
*	*	*	*	*	*	*	*	*	*	*	*	*	*Xrep	*	*Xrep	*	*Xrep	*	*Xrep	*	*	*	*	*	*	*
*	*	*	*	*	*	*	*	*	*v	*v	*v	*	*	*	*	*	*	*	*	*	*	*	*	*	*	*
=43	=43	=43	=43	=43	=43	=43	=43	=43	=43	=43	=43	=43	=43	=43	=43	=43	=43	=43	=43	=43	=43	=43	=43	=43
(16qqRa/LL	.	.	.	.	.	.	.	.	.	.	.	.	.	.	.	.	.	.	.	.	.	.	.	.
16qqRa/JJ	.	.	.	.	.	.	.	.	.	.	.	.	.	.	.	.	.	.	.	.	.	.	.	.
*	*	*	*	*	*	*	*	*	*^	*	*	*	*	*	*	*	*	*	*	*	*	*	*	*
8Ra/L)	2.rGG	.	4C/	.	2.r	.	2.r	.	8A/L	4c 4C\	.	4ff 4cc\	.	4a 4f\	.	4cc 4a\	.	4a 4f 4c/	.	8a'/L	.	2.r	.	8aa'\L	.
8Ra/	.	.	.	.	.	.	.	.	8c'</	.	.	.	.	.	.	.	.	.	.	8cc'/	.	.	.	8ccc'\	.
8Ra/J	.	.	8r	.	.	.	.	.	8Bn'</J	8rAA	.	8r	.	8r	.	8r	.	8r	.	8bn'/J	.	.	.	8bbX'\J	.
4Ra/	.	.	4r	.	.	.	.	.	(8c/L	4C\	.	4ff 4cc\	.	4a 4f\	.	4cc 4a\	.	4a 4f 4c/	.	(8cc/L	.	.	.	(8ccc\L	.
.	.	.	.	.	.	.	.	.	8A/)	.	.	.	.	.	.	.	.	.	.	8a/)	.	.	.	8aa\)	.
8r	.	.	8r	.	.	.	.	.	8F'</J	8rGG	.	8r	.	8r	.	8r	.	8r	.	8f'/J	.	.	.	8ff'\J	.
=44	=44	=44	=44	=44	=44	=44	=44	=44	=44	=44	=44	=44	=44	=44	=44	=44	=44	=44	=44	=44	=44	=44	=44	=44	=44
*rep	*	*	*	*	*	*	*	*	*	*	*	*	*	*	*	*	*	*	*	*	*	*	*	*	*
(16qqRa/LL	.	.	.	.	.	.	.	.	.	.	.	.	.	.	.	.	.	.	.	.	.	.	.	.	.
16qqRa/JJ	.	.	.	.	.	.	.	.	.	.	.	.	.	.	.	.	.	.	.	.	.	.	.	.	.
8Ra/L)	2.rGG	.	4C/	.	2.r	.	2.r	.	8G/L	4C\	.	4ee 4cc\	.	4g 4c/	.	4ee 4g\	.	4b- 4g 4c/	.	8g/L|	.	4r	.	8gg\L	.
8Ra/	.	.	.	.	.	.	.	.	8B-X/	.	.	.	.	.	.	.	.	.	.	8b-X/|	.	.	.	8bb-X\	.
8Ra/J	.	.	8r	.	.	.	.	.	8A/J	8rAA	.	8r	.	8r	.	8r	.	8r	.	8a/J|	.	8r	.	8aa\J	.
4Ra/	.	.	4r	.	.	.	.	.	8B-/L	4C\	.	4ee 4cc\	.	4g 4c/	.	4ee 4g\	.	4b- 4g 4c/	.	(8b-/L	.	4r	.	(8bb-\L	.
.	.	.	.	.	.	.	.	.	8G/	.	.	.	.	.	.	.	.	.	.	8g/)	.	.	.	8gg\)	.
8r	.	.	8r	.	.	.	.	.	8E/J	8rGG	.	8r	.	8r	.	8r	.	8r	.	8e/J|	.	8ccc\	.	8ee'\J	.
*Xrep	*	*	*	*	*	*	*	*	*	*	*	*	*	*	*	*	*	*	*	*	*	*	*	*	*
*v	*v	*	*	*	*	*	*	*	*	*	*	*	*	*	*	*	*	*	*	*	*	*	*	*	*
=45	=45	=45	=45	=45	=45	=45	=45	=45	=45	=45	=45	=45	=45	=45	=45	=45	=45	=45	=45	=45	=45	=45	=45	=45
!	!	!	!	!	!	!	!	!	!	!	!	!	!	!	!	!	!LO:TX:t=P:problem:skreślona nuta	!	!	!	!	!	!	!
2.Ratt/	.	2.C^/	.	2.c^/	.	2.cc^/	.	(2.G/	2.C\	.	2.ee 2.cc^\	.	2.g 2.c^/	.	2.ee 2.b-\	.	2.g 2.e 2.B-^>/	.	2.g/	.	2.cccTT\	.	2.gg\	.
=46	=46	=46	=46	=46	=46	=46	=46	=46	=46	=46	=46	=46	=46	=46	=46	=46	=46	=46	=46	=46	=46	=46	=46	=46
*	*	*	*	*	*	*	*	*	*	*	*tremolo	*	*tremolo	*	*tremolo	*	*tremolo	*	*	*	*	*	*	*
!	!	!	!	!	!	!	!	!	!	!	!	!	!	!	!	!	!	!	!LO:TX:t=P:problem:mixed beam	!	!	!	!	!
8Ra/L	.	8F\L	.	8c/L	.	8ff/L	.	4F/)	8F\L	.	8ffL 8cc\	.	8fL 8A/	.	8ffL 8a\	.	8fL 8A/	.	8f/L	.	8aa\L	.	8ff\L	.
8Ra/	.	8C\	.	8c/	.	8cc/	.	.	8C\	.	8ff 8cc\	.	8f 8A/	.	8ff 8a\	.	8f 8A/	.	8ff\	.	8fff\	.	8fff 8ff\	.
8Ra/J	.	8AA\J	.	8c/J	.	8a/J	.	8ryy	8AA\J	.	8ffJ 8cc\	.	8fJ 8A/	.	8ffJ 8a\	.	8fJ 8A/	.	8ff\J	.	8fff\J	.	8fffJ 8ff\	.
*	*	*	*	*	*	*	*	*	*	*	*Xtremolo	*	*Xtremolo	*	*Xtremolo	*	*Xtremolo	*	*	*	*	*	*	*
!LO:TX:b:t=fine	!	!	!	!	!	!	!	!	!	!	!	!	!	!	!	!	!	!	!	!	!	!	!LO:TX:t=P:problem:fermata na kresce taktowej	!
4Ra/	.	4FF/	.	4c/	.	4f/	.	4ryy	4FF\	.	4ff 4cc\	.	4f 4A/	.	4ff 4a\	.	4f 4A/	.	4ff\	.	4fff\	.	4fff 4ff;\	.
=:|!	=:|!	=:|!	=:|!	=:|!	=:|!	=:|!	=:|!	=:|!	=:|!	=:|!	=:|!	=:|!	=:|!	=:|!	=:|!	=:|!	=:|!	=:|!	=:|!	=:|!	=:|!	=:|!	=:|!	=:|!
*>E	*>E	*>E	*>E	*>E	*>E	*>E	*>E	*>E	*>E	*>E	*>E	*>E	*>E	*>E	*>E	*>E	*>E	*>E	*>E	*>E	*>E	*>E	*>E	*>E
!	!	!	!	!	!	!	!	!LO:TX:a:t=1.o. Col 1o Cla&colon;	!	!	!	!	!	!	!	!	!	!	!LO:TX:a:t=tutti	!LO:DY:rj	!	!LO:DY:a	!	!
8r	.	8r	.	8r	.	8r	.	8G/yy	8r	.	8r	.	8r	.	8r	.	8r	.	8g/	f	8gg\	f	8gg\	.
=47	=47	=47	=47	=47	=47	=47	=47	=47	=47	=47	=47	=47	=47	=47	=47	=47	=47	=47	=47	=47	=47	=47	=47	=47
16qqRa/LL	.	.	.	.	.	.	.	.	.	.	.	.	.	.	.	.	.	.	.	.	.	.	.	.
16qqRa/JJ	.	.	.	.	.	.	.	.	.	.	.	.	.	.	.	.	.	.	.	.	.	.	.	.
*^	*	*	*	*	*	*	*	*	*	*	*	*	*	*	*	*	*	*	*	*	*	*	*	*
!	!	!	!	!	!	!	!	!	!	!	!	!	!LO:DY:rj	!	!	!	!	!	!	!	!	!	!	!	!
4Ra/	4Ra\	.	4C/	.	4e/	.	4cc/	.	[y2.G/yy	8C\L	.	2.ee 2.cc\	f	4g 4c/	.	4ee 4cc\	.	8eL 8c/	.	[2.g/	.	[2.gg\	.	[2.gg\	.
.	.	.	.	.	.	.	.	.	.	8r	.	.	.	.	.	.	.	8r	.	.	.	.	.	.	.
8r	8ryy	.	8r	.	8r	.	8r	.	.	8GG\J	.	.	.	8r	.	8r	.	8gJ 8G/	.	.	.	.	.	.	.
*	*	*	*	*	*	*	*	*	*	*rep	*	*	*	*	*	*	*	*rep	*	*	*	*	*	*	*
4r	4ryy	.	4GG/	.	4r	.	4r	.	.	8C\L	.	.	.	4g 4c/	.	4ee 4cc\	.	8eL 8c/	.	.	.	.	.	.	.
.	.	.	.	.	.	.	.	.	.	8r	.	.	.	.	.	.	.	8r	.	.	.	.	.	.	.
8r	8ryy	.	8r	.	8r	.	8r	.	.	8GG\J	.	.	.	8r	.	8r	.	8gJ 8G/	.	.	.	.	.	.	.
*	*	*	*	*	*	*	*	*	*	*Xrep	*	*	*	*	*	*	*	*Xrep	*	*	*	*	*	*	*
=48	=48	=48	=48	=48	=48	=48	=48	=48	=48	=48	=48	=48	=48	=48	=48	=48	=48	=48	=48	=48	=48	=48	=48	=48	=48
*rep	*rep	*	*	*	*	*	*	*	*	*rep	*	*	*	*rep	*	*rep	*	*rep	*	*	*	*	*	*	*
16qqRa/LL	.	.	.	.	.	.	.	.	.	.	.	.	.	.	.	.	.	.	.	.	.	.	.	.	.
16qqRa/JJ	.	.	.	.	.	.	.	.	.	.	.	.	.	.	.	.	.	.	.	.	.	.	.	.	.
4Ra/	4Ra\	.	4C/	.	4e/	.	4cc/	.	8G/L]yy	8C\L	.	2.ee 2.cc\	.	4g 4c/	.	4ee 4cc\	.	8eL 8c/	.	8g/L]	.	8gg\L]	.	8gg\L]	.
.	.	.	.	.	.	.	.	.	8A'/yy	8r	.	.	.	.	.	.	.	8r	.	8a'/	.	8aa'\	.	8aa'\	.
8r	8ryy	.	8r	.	8r	.	8r	.	8Bn'/Jyy	8GG\J	.	.	.	8r	.	8r	.	8gJ 8G/	.	8bn'/J	.	8bbX'\J	.	8bbX'\J	.
4r	4ryy	.	4GG/	.	4r	.	4r	.	8c'/Lyy	8C\L	.	.	.	4g 4c/	.	4ee 4cc\	.	8eL 8c/	.	8cc'\L	.	8ccc'\L	.	8ccc'\L	.
.	.	.	.	.	.	.	.	.	8d'/yy	8r	.	.	.	.	.	.	.	8r	.	8dd'\	.	8ddd'\	.	8ddd'\	.
8r	8ryy	.	8r	.	8r	.	8r	.	8e'/Jyy	8GG\J	.	.	.	8r	.	8r	.	8gJ 8G/	.	8ee'\J	.	8eee'\J	.	8eee'\J	.
*Xrep	*Xrep	*	*	*	*	*	*	*	*	*Xrep	*	*	*	*Xrep	*	*Xrep	*	*Xrep	*	*	*	*	*	*	*
=49	=49	=49	=49	=49	=49	=49	=49	=49	=49	=49	=49	=49	=49	=49	=49	=49	=49	=49	=49	=49	=49	=49	=49	=49	=49
*	*	*	*	*	*	*	*	*	*	*	*	*	*	*^	*	*	*	*^	*	*	*	*	*	*	*
!LO:TX:t=P:problem:skreślona nuta	!	!	!LO:TX:t=P:problem:skreślona nuta	!	!	!	!	!	!	!LO:SIC:v:s=8BBn	!	!	!	!	!	!	!	!	!LO:TX:t=P:problem:skreślona nuta	!LO:SIC:v:s=8Bn	!	!	!	!	!	!	!
2.Ratt/	4Ra\	.	4BB-/	.	2.g/	.	2.r	.	4e/yy	8BB-\L	.	2.dd 2.g/	.	4g/	4g\	.	4dd 4g\	.	8f/L	8B-\L	.	4ee\	.	4eee\	.	4eee\	.
.	.	.	.	.	.	.	.	.	.	8r	.	.	.	.	.	.	.	.	8r	8ryy	.	.	.	.	.	.	.
.	8r	.	8r	.	.	.	.	.	8d/yy	8GG\J	.	.	.	8r	8ryy	.	8r	.	8g/J	8G\J	.	8dd\	.	8ddd\	.	8ddd\	.
*	*	*	*	*	*	*	*	*	*	*rep	*	*	*	*	*	*	*	*	*rep	*rep	*	*	*	*	*	*	*
!	!	!	!	!	!	!	!	!	!	!LO:SIC:v:s=8BBn	!	!	!	!	!	!	!	!	!	!LO:SIC:v:s=8Bn	!	!	!	!	!	!	!
.	4Ra\	.	8GG/	.	.	.	.	.	4c#X/yy	8BB-\L	.	.	.	4.g/	4.g\	.	4.gg 4.g\	.	8f/L	8B-\L	.	4cc#X\	.	4ccc#X\	.	4ccc#X\	.
.	.	.	8r	.	.	.	.	.	.	8r	.	.	.	.	.	.	.	.	8r	8ryy	.	.	.	.	.	.	.
.	8r	.	8r	.	.	.	.	.	8d/yy	8GG\J	.	.	.	.	.	.	.	.	8g/J	8G\J	.	8dd\	.	8ddd\	.	8ddd\	.
*	*	*	*	*	*	*	*	*	*	*Xrep	*	*	*	*	*	*	*	*	*Xrep	*Xrep	*	*	*	*	*	*	*
*	*	*	*	*	*	*	*	*	*v	*v	*	*	*	*	*	*	*	*	*	*	*	*	*	*	*	*	*
!!LO:PB:g=original
=50	=50	=50	=50	=50	=50	=50	=50	=50	=50	=50	=50	=50	=50	=50	=50	=50	=50	=50	=50	=50	=50	=50	=50	=50	=50	=50
!	!	!	!	!	!	!	!	!	!LO:TX:t=P:problem:zmiana kolejności instrumentów w partyturze	!	!	!	!	!	!	!	!	!	!	!	!	!	!	!	!	!
!	!	!	!	!	!LO:TX:t=P:problem:zmiana kolejności instrumentów w partyturze	!	!LO:TX:t=P:problem:zmiana kolejności instrumentów w partyturze	!	!LO:TX:a:t=Fagotti	!	!	!	!	!	!	!	!	!	!	!	!	!	!	!	!	!
!	!	!	!LO:SIC:v:s=4BBn	!	!LO:TX:a:t=Tromba\nin C	!	!LO:TX:a:t=Tromba\nin F	!	!LO:SIC:v:s=8BBn	!	!	!	!	!	!	!	!	!	!	!	!	!	!	!	!	!
2.Ratt/	4Ra\	.	4BB-/	.	4g/	.	2.r	.	8BB-/L	.	4dd 4g/	.	2.g/	2.g\	.	2.dd 2.g\	.	8f/L	8d\L	.	4aa\	.	4aaa\	.	4aaa\	.
.	.	.	.	.	.	.	.	.	8r	.	.	.	.	.	.	.	.	8r	8ryy	.	.	.	.	.	.	.
.	8r	.	8r	.	8r	.	.	.	8GG/J	.	8r	.	.	.	.	.	.	8g/J	8G\J	.	8gg\	.	8ggg\	.	8ggg\	.
*	*	*	*	*	*	*	*	*	*rep	*	*	*	*	*	*	*	*	*rep	*rep	*	*	*	*	*	*	*
!	!	!	!	!	!	!	!	!	!LO:SIC:v:s=8BBn	!	!	!	!	!	!	!	!	!	!	!	!	!	!	!	!	!
.	4Ra\	.	4GG/	.	4g/	.	.	.	8BB-/L	.	4dd 4g/	.	.	.	.	.	.	8f/L	8d\L	.	4ff#X\	.	4fff#X\	.	4fff#X\	.
.	.	.	.	.	.	.	.	.	8r	.	.	.	.	.	.	.	.	8r	8ryy	.	.	.	.	.	.	.
.	8r	.	8r	.	8r	.	.	.	8GG/J	.	8r	.	.	.	.	.	.	8g/J	8G\J	.	8gg\	.	8ggg\	.	8ggg\	.
*	*	*	*	*	*	*	*	*	*Xrep	*	*	*	*	*	*	*	*	*Xrep	*Xrep	*	*	*	*	*	*	*
*	*	*	*	*	*	*	*	*	*	*	*	*	*v	*v	*	*	*	*v	*v	*	*	*	*	*	*	*
=51	=51	=51	=51	=51	=51	=51	=51	=51	=51	=51	=51	=51	=51	=51	=51	=51	=51	=51	=51	=51	=51	=51	=51	=51
!	!	!	!	!	!	!	!	!	!	!	!	!	!	!	!	!	!	!	!	!	!LO:N:vis=8	!	!LO:N:vis=8	!
4Ra/	4Ra\	.	4C/	.	4e/	.	4cc/	.	8EL 8C\	.	2.ee 2.cc\	.	4g 4c/	.	4ee 4cc\	.	8eL 8c/	.	4ee\	.	4eee\	.	4eee\	.
.	.	.	.	.	.	.	.	.	8G 8GG\	.	.	.	.	.	.	.	8g 8G/	.	.	.	.	.	.	.
8r	8rEE	.	8r	.	8r	.	8r	.	8GJ 8GG\	.	.	.	8r	.	8r	.	8gJ 8G/	.	8r	.	8r	.	8r	.
16qqRa/LL	.	.	.	.	.	.	.	.	.	.	.	.	.	.	.	.	.	.	.	.	.	.	.	.
16qqRa/JJ	.	.	.	.	.	.	.	.	.	.	.	.	.	.	.	.	.	.	.	.	.	.	.	.
*	*	*	*	*	*	*	*	*	*rep	*	*	*	*	*	*	*	*rep	*	*	*	*	*	*	*
4Ra/	4rEE	.	4GG/	.	[4.e/	.	[4.cc/	.	8EL 8C\	.	.	.	4g 4c/	.	4ee 4cc\	.	8eL 8c/	.	[4.g^/	.	[4.gg^<\	.	[4.gg^<\	.
.	.	.	.	.	.	.	.	.	8G 8GG\	.	.	.	.	.	.	.	8g 8G/	.	.	.	.	.	.	.
8r	8rEE	.	8r	.	.	.	.	.	8GJ 8GG\	.	.	.	8r	.	8r	.	8gJ 8G/	.	.	.	.	.	.	.
*	*	*	*	*	*	*	*	*	*Xrep	*	*	*	*	*	*	*	*Xrep	*	*	*	*	*	*	*
=52	=52	=52	=52	=52	=52	=52	=52	=52	=52	=52	=52	=52	=52	=52	=52	=52	=52	=52	=52	=52	=52	=52	=52	=52
*	*	*	*rep	*	*	*	*	*	*rep	*	*	*	*rep	*	*rep	*	*rep	*	*	*	*	*	*	*
16qqRa/LL	.	.	.	.	.	.	.	.	.	.	.	.	.	.	.	.	.	.	.	.	.	.	.	.
16qqRa/JJ	.	.	.	.	.	.	.	.	.	.	.	.	.	.	.	.	.	.	.	.	.	.	.	.
4Ra/	4Ra\	.	4C/	.	4e/]	.	4cc/]	.	8EL 8C\	.	2.ee 2.cc\	.	4g 4c/	.	4ee 4cc\	.	8eL 8c/	.	8g/L]	.	8gg\L]	.	8gg\L]	.
.	.	.	.	.	.	.	.	.	8G 8GG\	.	.	.	.	.	.	.	8g 8G/	.	8a'/	.	8aa\	.	8aa'\	.
8r	8rEE	.	8r	.	8r	.	8r	.	8GJ 8GG\	.	.	.	8r	.	8r	.	8gJ 8G/	.	8b-'/J	.	8bbX\J	.	8bbX'\J	.
16qqRa/LL	.	.	.	.	.	.	.	.	.	.	.	.	.	.	.	.	.	.	.	.	.	.	.	.
16qqRa/JJ	.	.	.	.	.	.	.	.	.	.	.	.	.	.	.	.	.	.	.	.	.	.	.	.
4Ra/	4rEE	.	4GG/	.	4e/	.	4cc/	.	8EL 8C\	.	.	.	4g 4c/	.	4ee 4cc\	.	8eL 8c/	.	8cc'\L	.	8ccc\L	.	8ccc'\L	.
.	.	.	.	.	.	.	.	.	8G 8GG\	.	.	.	.	.	.	.	8g 8G/	.	8dd'\	.	8ddd\	.	8ddd'\	.
8r	8rEE	.	8r	.	8r	.	8r	.	8GJ 8GG\	.	.	.	8r	.	8r	.	8gJ 8G/	.	8ee'\J	.	8eee\J	.	8eee'\J	.
*	*	*	*Xrep	*	*	*	*	*	*Xrep	*	*	*	*Xrep	*	*Xrep	*	*Xrep	*	*	*	*	*	*	*
=53	=53	=53	=53	=53	=53	=53	=53	=53	=53	=53	=53	=53	=53	=53	=53	=53	=53	=53	=53	=53	=53	=53	=53	=53
*	*	*	*	*	*	*	*	*	*	*	*	*	*^	*	*	*	*	*	*	*	*	*	*	*
!	!	!	!LO:SIC:v:s=4BBn	!	!	!	!	!	!LO:SIC:v:n=2:s=8BBn	!	!	!	!	!	!	!	!	!LO:TX:t=P:problem:skreślona nuta	!	!	!	!	!	!	!
2.Ratt/	4Ra\	.	4BB-/	.	4g/	.	2.r	.	8DL 8BB-\	.	2.dd 2.g/	.	4g/	4g\	.	4gg 4g\	.	8fL 8d/	.	4ee\	.	4eee\	.	4eee\	.
.	.	.	.	.	.	.	.	.	8G 8GG\	.	.	.	.	.	.	.	.	8g 8G/	.	.	.	.	.	.	.
.	8r	.	8r	.	16g/LL	.	.	.	8GJ 8GG\	.	.	.	8r	8ryy	.	8r	.	8gJ 8G/	.	8dd\	.	8ddd\	.	8ddd\	.
.	.	.	.	.	16g/JJ	.	.	.	.	.	.	.	.	.	.	.	.	.	.	.	.	.	.	.	.
*	*	*	*	*	*tremolo	*	*	*	*rep	*	*	*	*	*	*	*	*	*rep	*	*	*	*	*	*	*
!	!	!	!	!	!	!	!	!	!LO:SIC:v:n=2:s=8BBn	!	!	!	!	!	!	!	!	!	!	!	!	!	!	!	!
.	4Ra\	.	4GG/	.	8g/L	.	.	.	8DL 8BB-\	.	.	.	4.g/	4.g\	.	4.gg 4.g\	.	8fL 8d/	.	4cc#X\	.	4ccc#X\	.	4ccc#X\	.
.	.	.	.	.	8g/	.	.	.	8G 8GG\	.	.	.	.	.	.	.	.	8g 8G/	.	.	.	.	.	.	.
.	8r	.	8r	.	8g/J	.	.	.	8GJ 8GG\	.	.	.	.	.	.	.	.	8gJ 8G/	.	8dd\	.	8ddd\	.	8ddd\	.
*	*	*	*	*	*	*	*	*	*Xrep	*	*	*	*	*	*	*	*	*Xrep	*	*	*	*	*	*	*
=54	=54	=54	=54	=54	=54	=54	=54	=54	=54	=54	=54	=54	=54	=54	=54	=54	=54	=54	=54	=54	=54	=54	=54	=54	=54
*	*	*	*rep	*	*	*	*	*	*rep	*	*	*	*	*	*	*	*	*rep	*	*	*	*	*	*	*
!	!	!	!LO:SIC:v:s=4BBn	!	!	!	!	!	!LO:SIC:v:n=2:s=8BBn	!	!	!	!	!	!	!	!	!	!	!	!	!	!	!	!
2.Rattt/	4Ra\	.	4BB-/	.	8g/L	.	4r	.	8DL 8BB-\	.	4dd 4g/	.	2.g/	2.g\	.	2.dd 2.g\	.	8fL 8d/	.	4aa\	.	4aaa\	.	4aaa\	.
.	.	.	.	.	8g/	.	.	.	8G 8GG\	.	.	.	.	.	.	.	.	8g 8G/	.	.	.	.	.	.	.
.	8r	.	8r	.	8g/	.	8r	.	8GJ 8GG\	.	8r	.	.	.	.	.	.	8gJ 8G/	.	8gg\	.	8ggg\	.	8ggg\	.
!	!	!	!	!	!	!	!	!	!LO:SIC:v:n=2:s=8BBn	!	!	!	!	!	!	!	!	!	!	!	!	!	!	!	!
.	4Ra\	.	4GG/	.	8g/	.	4.gg\	.	8DL 8BB-\	.	4.dd 4.g/	.	.	.	.	.	.	8fL 8d/	.	4ffn\	.	4fffnX\	.	4fffnX\	.
.	.	.	.	.	8g/	.	.	.	8G 8GG\	.	.	.	.	.	.	.	.	8g 8G/	.	.	.	.	.	.	.
.	8r	.	8r	.	8g/J	.	.	.	8GJ 8GG\	.	.	.	.	.	.	.	.	8gJ 8G/	.	8dd\	.	8ddd\	.	8ddd\	.
*	*	*	*Xrep	*	*Xtremolo	*	*	*	*Xrep	*	*	*	*	*	*	*	*	*Xrep	*	*	*	*	*	*	*
*	*	*	*	*	*	*	*	*	*	*	*	*	*v	*v	*	*	*	*	*	*	*	*	*	*	*
=55	=55	=55	=55	=55	=55	=55	=55	=55	=55	=55	=55	=55	=55	=55	=55	=55	=55	=55	=55	=55	=55	=55	=55	=55
*	*	*	*	*	*	*	*	*	*	*	*	*	*	*	*	*	*	*	*^	*	*^	*	*	*
4Rattt/	4Ra\	.	4C/	.	4e/	.	4cc/	.	4E 4C\	.	4ee 4cc\	.	4g 4c/	.	4ee 4cc\	.	4e 4c/	.	4cc\	4.ryy	.	4ccc\	4ryy	.	4ccc\	.
!	!	!	!	!	!	!	!	!	!	!	!	!	!	!	!	!	!	!	!LO:TX:a:t=Solo	!	!	!	!	!	!	!
!	!	!	!	!	!	!	!	!	!	!	!	!	!	!	!	!	!	!	!LO:TX:b:t=1o.	!	!	!	!	!	!	!
8r	8ryy	.	8r	.	8r	.	8r	.	8r	.	8r	.	8r	.	8r	.	8r	.	8r	.	.	8r	8ryy	.	8r	.
!	!	!	!	!LO:DY:rj:a	!	!	!	!	!	!	!	!	!	!	!	!	!LO:TX:t=P:problem:skreślona nuta	!	!	!	!	!	!	!	!	!
4r	4ryy	.	(4.E\	p	[4.cc\	.	4r	.	(4.e 4.E\	.	(4.ee\	.	4.b- 4.g\	.	(4.bb-X 4.gg\	>	(>4.g 4.c/	.	4rgg	(4.b-X/	>	4.bb-\	4r	.	4r	.
8r	8ryy	.	.	.	.	.	8r	.	.	.	.	.	.	.	.	.	.	.	8rgg	.	.	.	8rb	>	8r	.
*	*	*	*	*	*	*	*	*	*	*	*	*	*	*	*	*	*	*	*v	*v	*	*	*	*	*	*
*v	*v	*	*	*	*	*	*	*	*	*	*	*	*	*	*	*	*	*	*	*	*v	*v	*	*	*
=56	=56	=56	=56	=56	=56	=56	=56	=56	=56	=56	=56	=56	=56	=56	=56	=56	=56	=56	=56	=56	=56	=56	=56
!LO:TX:t=[segno]:problem:znak segno na kresce taktowej	!	!	!	!	!	!LO:TX:t=[segno]:problem:znak segno na kresce taktowej	!	!	!	!	!	!	!	!	!	!	!	!	!	!	!	!LO:TX:t=[segno]:problem:znak segno na kresce taktowej	!
!LO:TX:a:t=1.	!	!	!	!LO:TX:t=[segno]:problem:znak segno na kresce taktowej	!	!LO:TX:a:t=1.	!	!	!	!	!	!	!	!	!	!	!	!	!	!	!	!LO:TX:a:t=1	!
2.r	.	4.F\	.	2.cc\]	.	2.r	.	4.f 4.F\	.	4.ff\	.	4.a 4.f\	.	4.aa 4.ff\	.	4.f 4.c/	.	4.a/	.	4.aa\	.	2.r	.
.	.	.	.	.	.	.	.	.	.	.	.	.	.	.	]	.	.	.	.	.	.	.	.
!	!	!	!	!	!	!	!	!	!	!	!	!	!	!	!	!LO:TX:t=[segno]:problem:znak segno na kresce taktowej	!	!	!	!	!	!	!
!	!	!LO:TX:t=[segno]:problem:znak segno na kresce taktowej	!	!	!	!	!	!LO:TX:t=[segno]:problem:znak segno na kresce taktowej	!	!LO:TX:t=[segno]:problem:znak segno na kresce taktowej	!	!LO:TX:t=[segno]:problem:znak segno na kresce taktowej	!	!LO:TX:t=[segno]:problem:znak segno na kresce taktowej	!	!LO:TX:a:t=d'al Segno \nal Fine	!	!LO:TX:t=[segno]:problem:znak segno na kresce taktowej	!	!LO:TX:t=[segno]:problem:znak segno na kresce taktowej	!	!	!
.	.	4.C\)	.	.	.	.	.	4.c 4.C\)	.	4.cc\)	.	4.g 4.c/	.	4.gg 4.ee\)	.	4.e 4.c/)	.	4.g/)	]	4.gg\	]	.	.
==	==	==	==	==	==	==	==	==	==	==	==	==	==	==	==	==	==	==	==	==	==	==	==
*-	*-	*-	*-	*-	*-	*-	*-	*-	*-	*-	*-	*-	*-	*-	*-	*-	*-	*-	*-	*-	*-	*-	*-
!!!system-decoration: (<s1,s2>{s3,s4}<s5>{s6,s7}<s8>{s9,s10}<s11,s12>)
!!!RDF**kern: > = above
!!!RDF**kern: < = below
!!!RDF**kern: | = vertical stroke
!!!ENC: Andrzej Kubiczek
!!!END: 2021-05-12
!!!ENC: Marcin Jachim
!!!END: 2021-04-21
